!!!COM: Scriabin, Alexander
!!!OTL: Vers la flamme
!!!OPS: 72
!!!ODT: 1914
!!!AGN: Poem
**kern	**kern	**kern
*staff3	*staff2	*staff1
*Ipiano	*Ipiano	*Ipiano
*clefG2	*clefF4	*clefG2
*k[]	*k[]	*k[]
*M9/8	*M9/8	*M9/8
8r	8r	8A#X 8c#X
=1	=1	=1
8%9r	[2.EE [2.AA#X	[2.G#X [2.d
.	4.EE] 4.AA#]	4G#] 4d]
.	.	8A#X 8c#X
=2	=2	=2
8%9r	[2.EE [2.AA#X	[2.G#X [2.d
.	4.EE_ 4.AA#_	4.G#_ 4.d_
=3	=3	=3
8%9r	2.EE_ 2.AA#_	8G#L] 8d]
.	.	8A#X 8c#X
.	.	8G#XJ 8d
.	.	8A# 8f#X
.	.	[4G# [4c#
.	4.EE] 4.AA#]	4G#] 4c#]
.	.	8F#X 8A#
=4	=4	=4
8%9r	[2.EE [2.AA#X	[2.G#X [2.d
.	4.EE] 4.AA#]	8G#L] 8d]
.	.	8A#X 8c#X
.	.	8G#J 8d
=5	=5	=5
8%9r	[2.GG [2.C#X	8A#X 8f#X
.	.	[4B [4fn
.	.	2.B_ 2.f_
.	4.GG_ 4.C#_	.
=6	=6	=6
8%9r	2.GG_ 2.C#_	2.B_ 2.f_
.	4.GG] 4.C#]	4B] 4f]
.	.	8c#X 8e
=7	=7	=7
8%9r	[2.GG [2.C#X	[2.B [2.f
.	4.GG] 4.C#]	4B] 4f]
.	.	8c#X 8e
=8	=8	=8
8%9r	[2.GG [2.C#X	[2.B [2.f
.	4.GG_ 4.C#_	4.B_ 4.f_
=9	=9	=9
8%9r	2.GG_ 2.C#_	8BL] 8f]
.	.	8c#X 8e
.	.	8BJ 8f
.	.	8c# 8a
.	.	[4B [4e
.	4.GG] 4.C#]	4B] 4e]
.	.	8A 8c#
=10	=10	=10
8%9r	[2.GG [2.C#X	[2.B [2.f
.	4.GG] 4.C#]	8BL] 8f]
.	.	8c#X 8e
.	.	8BJ 8f
=11	=11	=11
8%9r	[2.BB-X [2.E	8c#X 8a
.	.	[4d [4a-X
.	.	2.d_ 2.a-_
.	4.BB-_ 4.E_	.
=12	=12	=12
8%9r	2.BB-_ 2.E_	2.d_ 2.a-_
.	4.BB-_ 4.E_	4.d_ 4.a-_
=13	=13	=13
8%9r	4.BB-] 4.E]	4.d] 4.a-]
.	2.BB-X 2.E	2.d 2.a-X
=14	=14	=14
8%9r	2.BB-X 2.E	2.d 2.a-X
.	4.BB- 4.En	4.e-X 4.g
=15	=15	=15
8%9r	[2.BB-X [2.E	8c#X 8an
.	.	[4d [4a-X
.	.	2.d_ 2.a-_
.	4.BB-_ 4.E_	.
=16	=16	=16
8%9r	2.BB-_ 2.E_	2.d_ 2.a-_
.	4.BB-_ 4.E_	4.d_ 4.a-_
=17	=17	=17
8%9r	4.BB-] 4.E]	4.d] 4.a-]
.	2.BB-X 2.E	2.d 2.a-X
=18	=18	=18
8%9r	2.BB-X 2.E	2.d 2.a-X
.	4.BB- 4.F	4.d 4.g
=19	=19	=19
8%9r	4.BBn 4.F#X	4.d 4.f#X
.	[2.BB-X [2.E	[2.d [2.a-X [2.cc
=20	=20	=20
8%9r	2.BB-_ 2.E_	2.d_ 2.a-_ 2.cc_
.	4.BB-_ 4.E_	4.d_ 4.a-_ 4.cc_
=21	=21	=21
8%9r	4.BB-] 4.E]	4.d] 4.a-] 4.cc]
.	2.BB-X 2.E	2.d 2.a-X 2.cc
=22	=22	=22
8%9r	2.BB-X 2.E	2.d 2.a-X 2.cc
.	4.BB- 4.F	4.d 4.g 4.bn
=23	=23	=23
8%9r	4.BBn 4.F#X	4.d 4.f#X 4.a#X
*	*	*clefF4
.	[2.BBB-X [2.EE	[2.D [2.A-X [2.c
=24	=24	=24
8%9r	2.BBB-_ 2.EE_	2.D_ 2.A-_ 2.c_
.	4.BBB-_ 4.EE_	4.D_ 4.A-_ 4.c_
=25	=25	=25
8%9r	4.BBB-] 4.EE]	4.D] 4.A-] 4.c]
.	2.BBB-X 2.EE	2.D 2.A-X 2.c
=26	=26	=26
8%9r	2.BBB-X 2.EE	2.D 2.A-X 2.c
.	4.BBB- 4.FF	4.D 4.G 4.Bn
=27	=27	=27
*	*	*^
8%9r	[2.BBBn [2.FF#X	4rc	[2.D [2.F#X [2.A#X
.	.	8d	.
.	.	[2.c#X	.
.	4.BBB] 4.FF#]	.	4.D] 4.F#] 4.A#]
=28	=28	=28	=28
8%9r	[2.EEE [2.EE	4c#]	[2.D 2.G#X [2.A#X
.	.	8d	.
.	.	[2.c#X	.
.	4.EEE] 4.EE]	.	4.D] 4.Gn 4.A#]
=29	=29	=29	=29
8%9r	[2.BBB [2.FF#X	4c#]	[2.D [2.F#X [2.A#X
.	.	8d	.
.	.	[2.c#X	.
.	4.BBB] 4.FF#]	.	4.D] 4.F#] 4.A#]
=30	=30	=30	=30
*	*	*	*^
8%9r	[2.DD [2.AA	4.c#]	[2.Fn [2.An	4.c#X\
.	.	4.d	.	4.c#X/
.	4.DD] 4.AA]	4.f	4.F] 4.A]	4cn\
.	.	.	.	8B\
*	*	*	*v	*v
=31	=31	=31	=31
8%9r	[2.BBB [2.FF#X	8g#XL	[2.D [2.F#X [2.A#X
.	.	8f#X	.
.	.	8dJ	.
.	.	[2.c#X	.
.	4.BBB] 4.FF#]	.	4.D] 4.F#] 4.A#]
=32	=32	=32	=32
*	*	*	*^
8%9r	[2.DD [2.AA	4.c#]	[2.Fn [2.An	4.c#X\
.	.	4.c#X	.	2.c#\
.	4.DD] 4.AA]	4.d	4.F] 4.A]	.
*	*	*	*v	*v
=33	=33	=33	=33
*	*^	*	*
8%9r	[2.FFn	[2.BBB-X	[2.f	[2.D [2.A-X [2.c#X
.	4.FF_	4.BBB-_	4.f_	4.D] 4.A-] 4.c#]
=34	=34	=34	=34	=34
8%9r	4.FF]	2.BBB-_	8f]	[2.D 2.A-X 2.cn
.	.	.	8rc	.
.	.	.	8rc	.
.	4.EE	.	4rc	.
.	.	.	8rc	.
.	4.FF	4.BBB-]	4rc	4.D] 4.G 4.Bn
.	.	.	8rc	.
*	*v	*v	*	*
=35	=35	=35	=35
8%9r	[2.BBBn [2.FF#X	4rc	[2.D [2.F#X [2.A#X
.	.	8d	.
.	.	[2.c#X	.
.	4.BBB] 4.FF#]	.	4.D] 4.F#] 4.A#]
=36	=36	=36	=36
8%9r	[2.BBB [2.FF#X	4.c#]	[2.D [2.F#X [2.A#X
.	.	4.c#X	.
.	4.BBB] 4.FF#]	4.d	4.D] 4.F#] 4.A#]
=37	=37	=37	=37
*	*^	*	*
8%9r	[2.FFn	[2.BBB-X	[2.f	[2.D [2.A-X [2.c#X
.	4.FF_	4.BBB-_	4.f_	4.D] 4.A-] 4.c#]
=38	=38	=38	=38	=38
8%9r	4.FF]	2.BBB-_	8f]	[2.D 2.A-X 2.cn
.	.	.	8rc	.
.	.	.	8rc	.
.	4.EE	.	4rc	.
.	.	.	8rc	.
.	4.FF	4.BBB-]	4rc	4.D] 4.G 4.Bn
.	.	.	8rc	.
*	*v	*v	*	*
=39	=39	=39	=39
8%9r	[2.BBBn [2.FF#X	4rc	[2.D [2.F#X [2.A#X
.	.	8d	.
.	.	[2.c#X	.
.	4.BBB] 4.FF#]	.	4.D] 4.F#] 4.A#]
=40	=40	=40	=40
8%9r	[2.BBB [2.FF#X	4.c#]	[2.D [2.F#X [2.A#X
.	.	4.c#X	.
.	4.BBB] 4.FF#]	4.d	4.D] 4.F#] 4.A#]
*	*	*clefG2	*
=41	=41	=41	=41
*	*^	*	*
8%9r	[2.D	40%9rEE	[2.fn	8rc
.	.	.	.	8dL
.	.	40%9EE	.	.
.	.	.	.	8G#XJ
.	.	.	.	4d
.	.	40%9BBB	.	.
.	.	.	.	8G#
.	.	40%9EE	.	.
.	4D]	.	4f]	8dL
.	.	.	.	8G#J
.	.	40%9BBB	.	.
.	[8BB	.	8gn	8rc
=42	=42	=42	=42	=42
8%9r	2.BB_	40%9rEE	[2.f#X	8rc
.	.	.	.	8c#XL
.	.	40%9EE	.	.
.	.	.	.	8GnJ
.	.	.	.	4c#
.	.	40%9BBB	.	.
.	.	.	.	[8G
.	.	40%9EE	.	.
.	4.BB]	.	4.f#]	8GL]
.	.	.	.	8c#
.	.	40%9BBB	.	.
.	.	.	.	8GJ
=43	=43	=43	=43	=43
8%9r	[2.D	40%9rEE	[2.fn	8rc
.	.	.	.	8dL
.	.	40%9EE	.	.
.	.	.	.	8G#XJ
.	.	.	.	4d
.	.	40%9BBB	.	.
.	.	.	.	8G#
.	.	40%9EE	.	.
.	4D]	.	4f]	8dL
.	.	.	.	8G#J
.	.	40%9BBB	.	.
.	[8BB	.	8gn	8rc
=44	=44	=44	=44	=44
8%9r	2.BB_	40%9rEE	[2.f#X	8rc
.	.	.	.	8c#XL
.	.	40%9EE	.	.
.	.	.	.	8GnJ
.	.	.	.	4c#
.	.	40%9BBB	.	.
.	.	.	.	8G
.	.	40%9EE	.	.
.	4BB]	.	4f#]	8c#L
.	.	.	.	8GJ
.	.	40%9BBB	.	.
.	[8D	.	8a	8rc
=45	=45	=45	=45	=45
8%9r	2.D_	40%9rEE	[2.g#X	8rc
.	.	.	.	8c#XL
.	.	40%9EE	.	.
.	.	.	.	8F#XJ
.	.	.	.	4c#
.	.	40%9BBB	.	.
.	.	.	.	[8F#
.	.	40%9EE	.	.
.	4.D]	.	4.g#_	8F#L]
.	.	.	.	8c#
.	.	40%9BBB	.	.
.	.	.	.	8F#J
=46	=46	=46	=46	=46
8%9r	[2.D	40%9rEE	4g#]	8rc
.	.	.	.	8G#XL
.	.	40%9EE	.	.
*	*	*	*clefF4	*
.	.	.	[8c#X	8F#XJ
.	.	.	4.c#_	4G#
.	.	40%9BBB	.	.
.	.	.	.	[8Fn
.	.	40%9EE	.	.
.	4.D]	.	4c#]	8FL]
.	.	.	.	8G#
.	.	40%9BBB	.	.
.	.	.	8d	8EJ
=47	=47	=47	=47	=47
8%9r	[2.GGn	40%9rEE	[2.e-X	8rEE
.	.	.	.	8AL
.	.	40%9CCn	.	.
.	.	.	.	8E-XJ
.	.	.	.	4A
.	.	40%9GGG	.	.
.	.	.	.	[8E-
.	.	40%9CC	.	.
.	4.GG_	.	4.e-_	8E-L]
.	.	.	.	8AJ
.	.	40%9GGG	.	.
.	.	.	.	8E-
=48	=48	=48	=48	=48
*	*	*	*	*^
8%9r	2.GG_	40%9rEE	2.e-_	8rA	[2.D\
.	.	.	.	8AL	.
.	.	40%9CC	.	.	.
.	.	.	.	8E-XJ	.
.	.	.	.	4A	.
.	.	40%9GGG	.	.	.
.	.	.	.	[8E-	.
.	.	40%9CC	.	.	.
.	4.GG]	.	4.e-_	8E-L]	4.D\]
.	.	.	.	8A	.
.	.	40%9GGG	.	.	.
.	.	.	.	8E-J	.
*	*	*	*	*v	*v
=49	=49	=49	=49	=49
8%9r	[2.GG	40%9rEE	2.e-_	8rEE
.	.	.	.	8AL
.	.	40%9CC	.	.
.	.	.	.	8E-XJ
.	.	.	.	4A
.	.	40%9GGG	.	.
.	.	.	.	8E-
.	.	40%9CC	.	.
.	4GG]	.	4e-]	8AL
.	.	.	.	8E-J
.	.	40%9GGG	.	.
.	[8GG	.	8e-X	8rEE
=50	=50	=50	=50	=50
8%9r	2.GG_	40%9rEE	[2.d	8rEE
.	.	.	.	8AL
.	.	40%9CC	.	.
.	.	.	.	8E-XJ
.	.	.	.	4A
.	.	40%9GGG	.	.
.	.	.	.	[8E-
.	.	40%9CC	.	.
.	4.GG]	.	4.d]	8E-L]
.	.	.	.	8A
.	.	40%9GGG	.	.
.	.	.	.	8E-J
=51	=51	=51	=51	=51
8%9r	[2.BB-X	40%9rEE	[2.d-X	8rEE
.	.	.	.	8B-XL
.	.	40%9CC	.	.
.	.	.	.	8EnJ
.	.	.	.	4B-
.	.	40%9GGG	.	.
.	.	.	.	8E
.	.	40%9CC	.	.
.	4BB-]	.	4d-]	8B-L
.	.	.	.	8EJ
.	.	40%9GGG	.	.
.	[8GG	.	8e-X	8rEE
=52	=52	=52	=52	=52
8%9r	2.GG_	40%9rEE	[2.dn	8rEE
.	.	.	.	8AL
.	.	40%9CC	.	.
.	.	.	.	8E-XJ
.	.	.	.	4A
.	.	40%9GGG	.	.
.	.	.	.	8E-
.	.	40%9CC	.	.
.	4GG]	.	4d]	8AL
.	.	.	.	8E-J
.	.	40%9GGG	.	.
.	[8BB-X	.	8f	8rEE
=53	=53	=53	=53	=53
8%9r	2.BB-_	40%9rEE	[2.e	8rEE
.	.	.	.	8AL
.	.	40%9CC	.	.
.	.	.	.	8DJ
.	.	.	.	4A
.	.	40%9GGG	.	.
.	.	.	.	[8D
.	.	40%9CC	.	.
.	4.BB-]	.	4.e_	8DL]
.	.	.	.	8A
.	.	40%9GGG	.	.
.	.	.	.	8DJ
=54	=54	=54	=54	=54
8%9r	[2.B-X	40%9rEE	4e]	8rEE
.	.	.	.	8eL
.	.	40%9C	.	.
*	*	*	*clefG2	*
.	.	.	[8a	8dJ
.	.	.	4.a_	4e
.	.	40%9GG	.	.
.	.	.	.	[8d-X
.	.	40%9C	.	.
.	4.B-]	.	4a]	8d-L]
.	.	.	.	8e
.	.	40%9GG	.	.
.	.	.	8b-X	8cJ
=55	=55	=55	=55	=55
8%9r	[2.E-X	40%9rEE	[2.cc-X	8rc
.	.	.	.	8fL
.	.	40%9AA-X	.	.
.	.	.	.	8c-XJ
.	.	.	.	4f
.	.	40%9EE-X	.	.
.	.	.	.	[8c-
.	.	40%9AA-	.	.
.	4.E-_	.	4.cc-_	8c-L]
.	.	.	.	8fJ
.	.	40%9EE-	.	.
.	.	.	.	8c-
=56	=56	=56	=56	=56
*	*	*	*	*^
8%9r	2.E-_	40%9rEE	2.cc-_	8rc	[2.B-X\
.	.	.	.	8fL	.
.	.	40%9AA-X	.	.	.
.	.	.	.	8c-XJ	.
.	.	.	.	4f	.
.	.	40%9EE-X	.	.	.
.	.	.	.	[8c-	.
.	.	40%9AA-	.	.	.
.	4.E-]	.	4.cc-_	8c-L]	4.B-\]
.	.	.	.	8f	.
.	.	40%9EE-	.	.	.
.	.	.	.	8c-J	.
*	*	*	*	*v	*v
=57	=57	=57	=57	=57
8%9r	[2.E-X	40%9rEE	2.cc-_	8rc
.	.	.	.	8fL
.	.	40%9AA-X	.	.
.	.	.	.	8c-XJ
.	.	.	.	4f
.	.	40%9EE-X	.	.
.	.	.	.	8c-
.	.	40%9AA-	.	.
.	4E-]	.	4cc-]	8fL
.	.	.	.	8c-J
.	.	40%9EE-	.	.
.	[8E-	.	8cc-X	8rc
=58	=58	=58	=58	=58
8%9r	2.E-_	40%9rEE	[2.b-X	8rc
.	.	.	.	8fL
.	.	40%9AA-X	.	.
.	.	.	.	8c-XJ
.	.	.	.	4f
.	.	40%9EE-X	.	.
.	.	.	.	8c-
.	.	40%9AA-	.	.
.	4E-]	.	4b-]	8fL
.	.	.	.	8c-J
.	.	40%9EE-	.	.
.	[8G-X	.	8dd-X	8rc
=59	=59	=59	=59	=59
*	*	*	*	*^
8%9r	2.G-_	40%9rEE	[2.ccn	8rc	4.ryy
.	.	.	.	8fL	.
.	.	40%9AA-X	.	.	.
.	.	.	.	8B-XJ	.
.	.	.	.	4f	4.ryy
.	.	40%9EE-X	.	.	.
.	.	.	.	8B-	.
.	.	40%9AA-	.	.	.
.	4.G-_	.	4.cc_	8fL	8ryy
.	.	.	.	8B-J	8ryy
.	.	40%9EE-	.	.	.
.	.	.	.	8rc	8g-X/
=60	=60	=60	=60	=60	=60
8%9r	2.G-_	40%9rEE	2.cc_	8rc	[2.f/
.	.	.	.	8cL	.
.	.	40%9AA-X	.	.	.
.	.	.	.	8B-XJ	.
.	.	.	.	4c	.
.	.	40%9EE-X	.	.	.
.	.	.	.	[8B-	.
.	.	40%9AA-	.	.	.
.	4.G-]	.	4.cc]	8B-L]	4.f/]
.	.	.	.	8c	.
.	.	40%9EE-	.	.	.
.	.	.	.	8B-J	.
*	*	*	*	*v	*v
=61	=61	=61	=61	=61
8%9r	[2.E-X	40%9rEE	4raa	8rc
.	.	.	.	8fL
.	.	40%9AA-X	.	.
.	.	.	8raa	8c-XJ
.	.	.	4raa	4f
.	.	40%9EE-X	.	.
.	.	.	8raa	8c-
.	.	40%9AA-	.	.
.	4E-]	.	4raa	8fL
.	.	.	.	8c-J
.	.	40%9EE-	.	.
.	[8E-	.	8cc-X	8rc
=62	=62	=62	=62	=62
8%9r	2.E-_	40%9rEE	[2.b-X	8rc
.	.	.	.	8fL
.	.	40%9AA-X	.	.
.	.	.	.	8c-XJ
.	.	.	.	4f
.	.	40%9EE-X	.	.
.	.	.	.	8c-
.	.	40%9AA-	.	.
.	4E-]	.	4b-]	8fL
.	.	.	.	8c-J
.	.	40%9EE-	.	.
.	[8G-X	.	8dd-X	8rc
=63	=63	=63	=63	=63
8%9r	2.G-_	40%9rEE	[2.ccn	8rc
.	.	.	.	8fL
.	.	40%9AA-X	.	.
.	.	.	.	8B-XJ
.	.	.	.	4f
.	.	40%9EE-X	.	.
.	.	.	.	8B-
.	.	40%9AA-	.	.
.	4G-]	.	4cc]	8fL
.	.	.	.	8B-J
.	.	40%9EE-	.	.
.	[8Gn	.	8cc#X	8rc
=64	=64	=64	=64	=64
*	*	*^	*	*
8%9r	2.G_	40%9rEE	4.ryy	[2.bn	8rc
.	.	.	.	.	8gL
.	.	40%9EEn	.	.	.
.	.	.	.	.	8enJ
.	.	.	4.ryy	.	4g
.	.	40%9BBB	.	.	.
.	.	.	.	.	8e
.	.	40%9EE	.	.	.
.	4G]	.	8ryy	4b]	8gL
.	.	.	8ryy	.	8eJ
.	.	40%9BBB	.	.	.
.	[8F#X [8f#X	.	16r	8dd	8rc
.	.	.	16d\	.	.
*	*	*v	*v	*	*
=65	=65	=65	=65	=65
8%9r	2.F#] 2.f#]	16G#XLL	[2.cc#X	8rc
.	.	16D	.	.
.	.	16EE	.	8bL
.	.	16BBBJJ	.	.
.	.	8r	.	8g#XJ
.	.	4r	.	4b
.	.	8r	.	8g#
.	4rg	4DD 4GGn 4Fn 4B	4cc#]	8aL
.	.	.	.	8fnJ
.	[8F#X	8rGG	8dd	8rc
=66	=66	=66	=66	=66
8%9r	2.F#_	40%9rEE	[2.cc#X	8rc
.	.	.	.	8g#XL
.	.	40%9BB	.	.
.	.	.	.	8dJ
.	.	.	.	8rc
.	.	40%9FF#X	.	.
.	.	.	.	8dL
.	.	.	.	8g#J
.	.	40%9FF#	.	.
.	4F#]	.	4cc#]	8cc#L
.	.	.	.	8g#J
.	.	40%9FFF#X	.	.
.	[8A	.	8ee	8rc
=67	=67	=67	=67	=67
8%9r	2.A_	40%9rEE	[2.dd#X	8rc
.	.	.	.	8g#XL
.	.	40%9BB	.	.
.	.	.	.	8c#XJ
.	.	.	.	8rc
.	.	40%9FF#X	.	.
.	.	.	.	8c#L
.	.	.	.	8g#J
.	.	40%9FF#	.	.
.	4A]	.	4dd#]	8cc#XL
.	.	.	.	8g#J
.	.	40%9FFF#X	.	.
.	[8B-X	.	8ee	8rc
=68	=68	=68	=68	=68
*	*	*^	*	*
8%9r	2.B-_	40%9rEE	4.ryy	[2.ddn	8rc
.	.	.	.	.	8gnL
.	.	40%9GG	.	.	.
.	.	.	.	.	8B-XJ
.	.	.	4.ryy	.	8rc
.	.	40%9DD	.	.	.
.	.	.	.	.	8B-L
.	.	.	.	.	8gJ
.	.	40%9DD	.	.	.
.	4B-]	.	8ryy	4dd]	8b-XL
.	.	.	8ryy	.	8gJ
.	.	40%9DDD	.	.	.
.	[8A [8a	.	16r	8ffn	8rc
.	.	.	16f\	.	.
*	*	*v	*v	*	*
=69	=69	=69	=69	=69
8%9r	2.A_ 2.a_	16BnLL	[2.ee	8rc
.	.	16F	.	.
.	.	16GG	.	8fL
.	.	16DDJJ	.	.
.	.	8r	.	8BnJ
.	.	4r	.	8rc
.	.	.	.	8BL
.	.	8r	.	8fJ
.	4A] 4a]	4r	4ee]	8bL
.	.	.	.	8fJ
.	[8c [8cc	16r	8ff	8rc
.	.	16a-X	.	.
=70	=70	=70	=70	=70
8%9r	2.c_ 2.cc_	16dLL	[2.ee	8rc
.	.	16A-X	.	.
.	.	16BB-X	.	8eL 8g
.	.	16FFJJ	.	.
.	.	8r	.	8dJ 8a-X
.	.	4r	.	4e 4cc
.	.	8r	.	[8d [8g
.	4c] 4cc]	4r	4ee]	8dL] 8g]
.	.	.	.	8cJ 8e
.	[8An [8an	16r	8ff	8rc
.	.	16f	.	.
=71	=71	=71	=71	=71
8%9r	2.A_ 2.a_	16BnLL	[2.ee	8rc
.	.	16F	.	.
.	.	16GG	.	8ddL
.	.	16DDJJ	.	.
.	.	8r	.	8bJ
.	.	4r	.	8rc
.	.	.	.	8dL
.	.	8r	.	8bJ
.	4A] 4a]	4r	4ee]	8ddL
.	.	.	.	8bJ
.	[8B-X [8b-X	16r	8ff#X	8rc
.	.	16g	.	.
=72	=72	=72	=72	=72
8%9r	2.B-_ 2.b-_	16dLL	[2.ee	8rc
.	.	16Fn	.	.
.	.	16GG	.	8ddL
.	.	16DDJJ	.	.
.	.	8r	.	8b-XJ
.	.	4r	.	8ddL
.	.	.	.	8b-
.	.	8r	.	8dJ
.	4B-] 4b-]	4r	4ee]	8b-L
.	.	.	.	8ddJ
.	[8c [8cc	16r	[8gg	8rc
.	.	16a-X	.	.
=73	=73	=73	=73	=73
8%9r	2.c_ 2.cc_	16dLL	[2.ff 2.gg_	8rc
.	.	16A-X	.	.
.	.	16BB-X	.	8ddL
.	.	16FFJJ	.	.
.	.	8r	.	8ccJ
.	.	4r	.	8ddL
.	.	.	.	16qqd/LL
.	.	.	.	16qqe/
.	.	.	.	16qqg/
.	.	.	.	16qqa-X/JJ
.	.	.	.	8cc
.	.	8r	.	8dJ
.	4c] 4cc]	4r	4ff] 4gg]	8ccL
.	.	.	.	8ddJ
.	[8e-X [8ee-X	16r	[8gg	8rc
.	.	16cc-X	.	.
=74	=74	=74	=74	=74
8%9r	2.e-_ 2.ee-_	16fLL	[2.ff 2.gg_	8rc
.	.	16c-X	.	.
.	.	16D-X	.	8gL 8b-X
.	.	16AA-XJJ	.	.
.	.	8r	.	8fJ 8cc-X
.	.	4r	.	4g 4ee-X
.	.	8r	.	[8f [8b-
.	4e-] 4ee-]	4r	4ff] 4gg]	8fL] 8b-]
.	.	.	.	8e-XJ 8g
.	[8cn [8ccn	16r	[8gg	8rc
.	.	16a-X	.	.
=75	=75	=75	=75	=75
8%9r	2.c_ 2.cc_	16dnLL	[2.ff 2.gg_	8rc
.	.	16A-X	.	.
.	.	16BB-X	.	8ddL
.	.	16FFJJ	.	.
.	.	8r	.	8ccnJ
.	.	4r	.	8ddL
.	.	.	.	16qqd/LL
.	.	.	.	16qqe/
.	.	.	.	16qqg/
.	.	.	.	16qqa-X/JJ
.	.	.	.	8cc
.	.	8r	.	8dJ
.	4c] 4cc]	4r	4ff] 4gg]	8ccL
.	.	.	.	8ddJ
.	[8c [8cc	16r	[8ff [8gg	8rc
.	.	16a-X	.	.
*	*	*	*v	*v
=76	=76	=76	=76
8%9r	2.c] 2.cc]	16dLL	8ffL] 8gg]
.	.	16A-X	.
.	.	16BB-X	8cc 8dd
.	.	16FFJJ	.
.	.	8r	[8ffJ [8gg
.	.	4r	4ff] 4gg]
.	.	8r	8cc 8dd
.	4.ryy	4.AA-X 4.D-X 4.c-X 4.f	16b-XLL 16ccn
.	.	.	16an
.	.	.	16b- 16cc
.	.	.	16a
.	.	.	16b- 16cc
.	.	.	16aJJ
=77	=77	=77	=77
8%9r	4.ryy	[2.BBn [2.E [2.B [2.e	24g#XKL 24a#X 24bn 24cc#X
.	.	.	24r
.	.	.	24g#L 24a#
.	.	.	24b 24cc#
.	.	.	24g# 24a#
.	.	.	24b 24cc#
.	.	.	24g# 24a#
.	.	.	24b 24cc#
.	.	.	24g#JJ 24a#
.	4.ryy	.	24bLL 24cc#
.	.	.	24g# 24a#
.	.	.	24b 24cc#
.	.	.	24g# 24a#
.	.	.	24b 24cc#
.	.	.	24g# 24a#
.	.	.	24b 24cc#
.	.	.	24g# 24a#
.	.	.	24bJJ 24cc#
.	8rc	4.BB_ 4.E_ 4.B_ 4.e_	24g#LL 24a#
.	.	.	24b 24cc#
.	.	.	24g# 24a#
.	8A#XL 8c#X	.	24b 24cc#
.	.	.	24g# 24a#
.	.	.	24b 24cc#
.	8G#XJ 8d	.	24g# 24a#
.	.	.	24b 24cc#
.	.	.	24g#JJ 24a#
=78	=78	=78	=78
8%9r	8A#XL 8f#X	2.BB_ 2.E_ 2.B_ 2.e_	24bLL 24cc#X
.	.	.	24g#X 24a#X
.	.	.	24b 24cc#
.	8G#X 8c#X	.	24g# 24a#
.	.	.	24b 24cc#
.	.	.	24g# 24a#
.	8F#XJ 8A#	.	24b 24cc#
.	.	.	24g# 24a#
.	.	.	24bJJ 24cc#
.	8G#L 8d	.	24g#LL 24a#
.	.	.	24b 24cc#
.	.	.	24g# 24a#
.	8A# 8c#	.	24b 24cc#
.	.	.	24g# 24a#
.	.	.	24b 24cc#
.	8G#J 8d	.	24g# 24a#
.	.	.	24b 24cc#
.	.	.	24g#JJ 24a#
.	8A#L 8f#	4.BB] 4.E] 4.B] 4.e]	24bLL 24cc#
.	.	.	24g# 24a#
.	.	.	24b 24cc#
.	8G# 8c#	.	24g# 24a#
.	.	.	24b 24cc#
.	.	.	24g# 24a#
.	8F#J 8A#	.	24b 24cc#
.	.	.	24g# 24a#
.	.	.	24bJJ 24cc#
=79	=79	=79	=79
8%9r	8G#XL 8d	[2.EE [2.BB [2.E	8r
.	8A#X 8c#X	.	24bLL 24cc#X
.	.	.	24g#X 24a#X
.	.	.	24b 24cc#
.	8G#J 8d	.	24g# 24a#
.	.	.	24b 24cc#
.	.	.	24g#JJ 24a#
.	8A#L 8f#X	.	24bLL 24cc#
.	.	.	24g# 24a#
.	.	.	24b 24cc#
.	8G# 8c#	.	24g# 24a#
.	.	.	24b 24cc#
.	.	.	24g# 24a#
.	8F#XJ 8A#	.	24b 24cc#
.	.	.	24g# 24a#
.	.	.	24bJJ 24cc#
.	8G#L 8d	4.EE] 4.BB] 4.E]	24g#LL 24a#
.	.	.	24b 24cc#
.	.	.	24g# 24a#
.	8A# 8c#	.	24b 24cc#
.	.	.	24g# 24a#
.	.	.	24b 24cc#
.	8G#J 8d	.	24g# 24a#
.	.	.	24b 24cc#
.	.	.	24g#JJ 24a#
=80	=80	=80	=80
8%9r	8A#XL 8f#X	[2.BBB [2.EE [2.BB	8r
.	8G#X 8c#X	.	24g#XLL 24a#X
.	.	.	24b 24cc#X
.	.	.	24g# 24a#
.	8F#XJ 8A#	.	24b 24cc#
.	.	.	24g# 24a#
.	.	.	24bJJ 24cc#
.	8G#L 8d	.	24g#LL 24a#
.	.	.	24b 24cc#
.	.	.	24g# 24a#
.	8A# 8c#	.	24b 24cc#
.	.	.	24g# 24a#
.	.	.	24b 24cc#
.	8G#J 8d	.	24g# 24a#
.	.	.	24b 24cc#
.	.	.	24g#JJ 24a#
.	8A#L 8f#	4.BBB] 4.EE] 4.BB]	24bLL 24cc#
.	.	.	24g# 24a#
.	.	.	24b 24cc#
.	8G# 8c#	.	24g# 24a#
.	.	.	24b 24cc#
.	.	.	24g# 24a#
.	8F#J 8A#	.	24b 24cc#
.	.	.	24g# 24a#
.	.	.	24bJJ 24cc#
=81	=81	=81	=81
*	*	*	*^
8%9r	8A-X 8d	40%3BBB-XL 40%3BB-X	4raa	24rc
.	.	.	.	24dLL 24gn
.	.	40%3cn	.	.
.	.	.	.	[24a-X [24ccn
.	8ryy	.	.	24a-] 24cc]
.	.	40%3A-	.	.
.	.	.	.	24d 24g
.	.	.	.	24a- 24cc
.	.	40%3BB-	.	.
.	8ryy	.	12raa	24d 24g
.	.	.	.	24a-JJ 24cc
.	.	40%3BB-J	.	.
.	.	.	24aa-X	24rc
.	4.ryy	32%3BBB-L	[2.gg	24rc
.	.	.	.	24a-LL 24cc
.	.	.	.	[24d [24g
.	.	32%3BB-	.	.
.	.	.	.	24d] 24g]
.	.	.	.	24a- 24cc
.	.	32%3BB-	.	.
.	.	.	.	24d 24g
.	.	.	.	24a- 24cc
.	.	32%3A-J	.	.
.	.	.	.	24d 24g
.	.	.	.	[24a-JJ [24cc
.	4.ryy	32%3cL	.	24a-LL] 24cc]
.	.	.	.	24d 24g
.	.	.	.	[24a- [24cc
.	.	32%3A-	.	.
.	.	.	.	24a-] 24cc]
.	.	.	.	24d 24g
.	.	32%3BB-	.	.
.	.	.	.	24a- 24cc
.	.	.	.	24d 24g
.	.	32%3A-J	.	.
.	.	.	.	24a- 24cc
.	.	.	.	24dJJ 24g
=82	=82	=82	=82	=82
8%9r	8%9ryy	40%3r	8gg]	24a-XLL 24cc-X
.	.	.	.	24d 24g
.	.	40%3c-XL	.	.
.	.	.	.	[24a- [24cc-
.	.	.	8raa	24a-] 24cc-]
.	.	40%3A-X	.	.
.	.	.	.	24d 24g
.	.	.	.	24a- 24cc-
.	.	40%3C-X	.	.
.	.	.	12raa	24d 24g
.	.	.	.	24a-JJ 24cc-
.	.	40%3EE-XJ	.	.
.	.	.	24aa-X	24rc
.	.	32%3EEE-XL	[2.gg	24rc
.	.	.	.	24a-LL 24cc-
.	.	.	.	[24d [24g
.	.	32%3EE-	.	.
.	.	.	.	24d] 24g]
.	.	.	.	24a- 24cc-
.	.	32%3C-	.	.
.	.	.	.	24d 24g
.	.	.	.	24a- 24cc-
.	.	32%3A-J	.	.
.	.	.	.	24d 24g
.	.	.	.	[24a-JJ [24cc-
.	.	32%3c-L	.	24a-LL] 24cc-]
.	.	.	.	24d 24g
.	.	.	.	[24a- [24cc-
.	.	32%3A-	.	.
.	.	.	.	24a-] 24cc-]
.	.	.	.	24d 24g
.	.	32%3C-	.	.
.	.	.	.	24a- 24cc-
.	.	.	.	24d 24g
.	.	32%3A-J	.	.
.	.	.	.	24a- 24cc-
.	.	.	.	24dJJ 24g
=83	=83	=83	=83	=83
8%9r	8%9ryy	40%3r	8gg]	24a-XLL 24ccn
.	.	.	.	24d 24g
.	.	40%3cnL	.	.
.	.	.	.	[24a- [24cc
.	.	.	8raa	24a-] 24cc]
.	.	40%3A-X	.	.
.	.	.	.	24d 24g
.	.	.	.	24a- 24cc
.	.	40%3BB-X	.	.
.	.	.	12raa	24d 24g
.	.	.	.	24a-JJ 24cc
.	.	40%3BB-J	.	.
.	.	.	24aa-X	24rc
.	.	32%3BBB-XL	[2.gg	24rc
.	.	.	.	24a-LL 24cc
.	.	.	.	[24d [24g
.	.	32%3BB-	.	.
.	.	.	.	24d] 24g]
.	.	.	.	24a- 24cc
.	.	32%3BB-	.	.
.	.	.	.	24d 24g
.	.	.	.	24a- 24cc
.	.	32%3A-J	.	.
.	.	.	.	24d 24g
.	.	.	.	[24a-JJ [24cc
.	.	32%3cL	.	24a-LL] 24cc]
.	.	.	.	24d 24g
.	.	.	.	[24a- [24cc
.	.	32%3A-	.	.
.	.	.	.	24a-] 24cc]
.	.	.	.	24d 24g
.	.	32%3BB-	.	.
.	.	.	.	24a- 24cc
.	.	.	.	24d 24g
.	.	32%3A-J	.	.
.	.	.	.	24a- 24cc
.	.	.	.	24dJJ 24g
=84	=84	=84	=84	=84
8%9r	4.rc	[2.D-X [2.c-X [2.f	4.gg]	24cc-XLL 24ee-X
.	.	.	.	24f 24b-X
.	.	.	.	[24cc- [24ee-
.	.	.	.	24cc-] 24ee-]
.	.	.	.	24f 24b-
.	.	.	.	24cc- 24ee-
.	.	.	.	24f 24b-
.	.	.	.	24cc- 24ee-
.	.	.	.	24fJJ 24b-
.	4.e-X	.	4.gg-X 4.aa	24rc
.	.	.	.	24cc-LL 24ee-
.	.	.	.	[24f [24b-
.	.	.	.	24f] 24b-]
.	.	.	.	24cc- 24ee-
.	.	.	.	24f 24b-
.	.	.	.	24cc- 24ee-
.	.	.	.	24f 24b-
.	.	.	.	24cc-JJ 24ee-
.	4.A-X	4.D-] 4.c-] 4.f]	4.gg- 4.ccc-X	24rc
.	.	.	.	24fLL 24b-
.	.	.	.	[24cc- [24ee-
.	.	.	.	24cc-] 24ee-]
.	.	.	.	24f 24b-
.	.	.	.	24cc- 24ee-
.	.	.	.	24f 24b-
.	.	.	.	24cc- 24ee-
.	.	.	.	24fJJ 24b-
=85	=85	=85	=85	=85
.	.	.	16qqddn/LL	.
.	.	.	16qqaa-X/JJ	.
8%9r	8%9ryy	4.BB-X 4.A-X 4.dn	8dddnL	8rc
.	.	.	8cccn	24a-XLL 24ccn
.	.	.	.	24d 24g
.	.	.	.	24a- 24cc
.	.	.	8aa-XJ	24d 24g
.	.	.	.	24a- 24cc
.	.	.	.	24dJJ 24g
.	.	32%3r	[2.gg	24rc
.	.	.	.	24a-LL 24cc
.	.	.	.	[24d [24g
.	.	32%3BBB-XL	.	.
.	.	.	.	24d] 24g]
.	.	.	.	24a- 24cc
.	.	32%3BB-	.	.
.	.	.	.	24d 24g
.	.	.	.	24a- 24cc
.	.	32%3A-J	.	.
.	.	.	.	24d 24g
.	.	.	.	[24a-JJ [24cc
.	.	32%3cL	.	24a-LL] 24cc]
.	.	.	.	24d 24g
.	.	.	.	[24a- [24cc
.	.	32%3A-	.	.
.	.	.	.	24a-] 24cc]
.	.	.	.	24d 24g
.	.	32%3BB-	.	.
.	.	.	.	24a- 24cc
.	.	.	.	24d 24g
.	.	32%3A-J	.	.
.	.	.	.	24a- 24cc
.	.	.	.	24dJJ 24g
=86	=86	=86	=86	=86
8%9r	8%9ryy	32%3e-XL	4.gg]	24cc-XLL 24ee-X
.	.	.	.	24f 24b-X
.	.	.	.	[24cc- [24ee-
.	.	32%3c-X	.	.
.	.	.	.	24cc-] 24ee-]
.	.	.	.	24f 24b-
.	.	32%3D-X	.	.
.	.	.	.	24cc- 24ee-
.	.	.	.	24f 24b-
.	.	32%3D-J	.	.
.	.	.	.	24cc- 24ee-
.	.	.	.	24fJJ 24b-
.	.	32%3DD-XL	4.gg	24rc
.	.	.	.	24cc-LL 24ee-
.	.	.	.	[24f [24b-
.	.	32%3D-	.	.
.	.	.	.	24f] 24b-]
.	.	.	.	24cc- 24ee-
.	.	32%3D-	.	.
.	.	.	.	24f 24b-
.	.	.	.	24cc- 24ee-
.	.	32%3c-J	.	.
.	.	.	.	24f 24b-
.	.	.	.	24cc-JJ 24ee-
.	.	4r	4.aa-X	24rc
.	.	.	.	24fLL 24b-
.	.	.	.	[24cc- [24ee-
.	.	.	.	24cc-] 24ee-]
.	.	.	.	24f 24b-
.	.	.	.	24cc- 24ee-
.	.	8r	.	24f 24b-
.	.	.	.	24cc- 24ee-
.	.	.	.	24fJJ 24b-
=87	=87	=87	=87	=87
.	[8qGGG\ [8qGG	.	.	.
8%9r	2.GGG_ 2.GG_ [2.F [2.Bn	4.en	[2.bb	4.an 4.bn 4.een 4.aan
.	.	8rc	.	24fLL 24a
.	.	.	.	24B 24e
.	.	.	.	[24f [24a
.	.	[4c#X	.	24f] 24a]
.	.	.	.	24B 24e
.	.	.	.	24f 24a
.	.	.	.	24B 24e
.	.	.	.	24f 24a
.	.	.	.	24BJJ 24e
.	4.GGG_ 4.GG_ 4.F_ 4.B_	8c#]	4.bb_	24eLL 24f
.	.	.	.	24a 24b
.	.	.	.	[24e [24f
.	.	[4c#	.	24e] 24f]
.	.	.	.	24a 24b
.	.	.	.	24e 24f
.	.	.	.	24a 24b
.	.	.	.	24e 24f
.	.	.	.	24aJJ 24b
=88	=88	=88	=88	=88
8%9r	2.GGG_ 2.GG_ 2.F_ 2.B_	2.c#_	2.bb]	24bLL 24ee
.	.	.	.	24f 24a
.	.	.	.	24b 24ee
.	.	.	.	24f 24a
.	.	.	.	24b 24ee
.	.	.	.	24f 24a
.	.	.	.	24b 24ee
.	.	.	.	24f 24a
.	.	.	.	24bJJ 24ee
.	.	.	.	24aLL 24b
.	.	.	.	24ee 24ff
.	.	.	.	24a 24b
.	.	.	.	24ee 24ff
.	.	.	.	24a 24b
.	.	.	.	24ee 24ff
.	.	.	.	24a 24b
.	.	.	.	24ee 24ff
.	.	.	.	24aJJ 24b
.	4.GGG] 4.GG] 4.F] 4.B]	4.c#]	4raa	24ffLL 24aa
.	.	.	.	24b 24ee
.	.	.	.	24ff 24aa
.	.	.	.	24b 24ee
.	.	.	.	24ff 24aa
.	.	.	.	24b 24ee
.	.	.	8raa	24ff 24aa
.	.	.	.	24bJJ 24ee
.	.	.	.	24rc
=89	=89	=89	=89	=89
8%9r	8%9ryy	40%3r	4raa	24fLL 24a
.	.	.	.	24B 24e
.	.	40%3AL	.	.
.	.	.	.	[24f [24a
.	.	.	.	24f] 24a]
.	.	40%3F	.	.
.	.	.	.	24B 24e
.	.	.	.	24f 24a
.	.	40%3GG	.	.
.	.	.	12raa	24B 24e
.	.	.	.	24fJJ 24a
.	.	40%3GGJ	.	.
.	.	.	24ff	24rc
.	.	32%3GGGL	[2.ee	24rc
.	.	.	.	24fLL 24a
.	.	.	.	[24B [24e
.	.	32%3GG	.	.
.	.	.	.	24B] 24e]
.	.	.	.	24f 24a
.	.	32%3GG	.	.
.	.	.	.	24B 24e
.	.	.	.	24f 24a
.	.	32%3FJ	.	.
.	.	.	.	24B 24e
.	.	.	.	[24fJJ [24a
.	.	32%3AL	.	24fLL] 24a]
.	.	.	.	24B 24e
.	.	.	.	[24f [24a
.	.	32%3F	.	.
.	.	.	.	24f] 24a]
.	.	.	.	24B 24e
.	.	32%3GG	.	.
.	.	.	.	24f 24a
.	.	.	.	24B 24e
.	.	32%3FJ	.	.
.	.	.	.	24f 24a
.	.	.	.	24BJJ 24e
=90	=90	=90	=90	=90
8%9r	8%9ryy	40%3r	8ee]	24fLL 24a-X
.	.	.	.	24B 24e
.	.	40%3A-XL	.	.
.	.	.	.	[24f [24a-
.	.	.	8raa	24f] 24a-]
.	.	40%3F	.	.
.	.	.	.	24B 24e
.	.	.	.	24f 24a-
.	.	40%3AA-X	.	.
.	.	.	12raa	24B 24e
.	.	.	.	24fJJ 24a-
.	.	40%3CC#XJ	.	.
.	.	.	24ff	24rc
.	.	32%3CCC#XL	[2.ee	24rc
.	.	.	.	24fLL 24a-
.	.	.	.	[24B [24e
.	.	32%3CC#	.	.
.	.	.	.	24B] 24e]
.	.	.	.	24f 24a-
.	.	32%3AA-	.	.
.	.	.	.	24B 24e
.	.	.	.	24f 24a-
.	.	32%3FJ	.	.
.	.	.	.	24B 24e
.	.	.	.	[24fJJ [24a-
.	.	32%3A-L	.	24fLL] 24a-]
.	.	.	.	24B 24e
.	.	.	.	[24f [24a-
.	.	32%3F	.	.
.	.	.	.	24f] 24a-]
.	.	.	.	24B 24e
.	.	32%3AA-	.	.
.	.	.	.	24f 24a-
.	.	.	.	24B 24e
.	.	32%3FJ	.	.
.	.	.	.	24f 24a-
.	.	.	.	24BJJ 24e
=91	=91	=91	=91	=91
8%9r	8%9ryy	40%3r	8ee]	24fLL 24an
.	.	.	.	24B 24e
.	.	40%3AnL	.	.
.	.	.	.	[24f [24a
.	.	.	8raa	24f] 24a]
.	.	40%3F	.	.
.	.	.	.	24B 24e
.	.	.	.	24f 24a
.	.	40%3GG	.	.
.	.	.	12raa	24B 24e
.	.	.	.	24fJJ 24a
.	.	40%3GGJ	.	.
.	.	.	24ff	24rc
.	.	32%3GGGL	[2.ee	24rc
.	.	.	.	24fLL 24a
.	.	.	.	[24B [24e
.	.	32%3GG	.	.
.	.	.	.	24B] 24e]
.	.	.	.	24f 24a
.	.	32%3GG	.	.
.	.	.	.	24B 24e
.	.	.	.	24f 24a
.	.	32%3FJ	.	.
.	.	.	.	24B 24e
.	.	.	.	[24fJJ [24a
.	.	32%3AL	.	24fLL] 24a]
.	.	.	.	24B 24e
.	.	.	.	[24f [24a
.	.	32%3F	.	.
.	.	.	.	24f] 24a]
.	.	.	.	24B 24e
.	.	32%3GG	.	.
.	.	.	.	24f 24a
.	.	.	.	24B 24e
.	.	32%3FJ	.	.
.	.	.	.	24f 24a
.	.	.	.	24BJJ 24e
=92	=92	=92	=92	=92
8%9r	4.rb	[2.BB-X [2.A-X [2.d	4.ee]	24a-XLL 24cc
.	.	.	.	24d 24g
.	.	.	.	[24a- [24cc
.	.	.	.	24a-] 24cc]
.	.	.	.	24d 24g
.	.	.	.	24a- 24cc
.	.	.	.	24d 24g
.	.	.	.	24a- 24cc
.	.	.	.	24dJJ 24g
.	4.c	.	4.ee 4.ff	24rc
.	.	.	.	24a-LL 24cc
.	.	.	.	[24d [24g
.	.	.	.	24d] 24g]
.	.	.	.	24a- 24cc
.	.	.	.	24d 24g
.	.	.	.	24a- 24cc
.	.	.	.	24d 24g
.	.	.	.	24a-JJ 24cc
.	4.F	4.BB-] 4.A-] 4.d]	4.ee 4.aa-X	24rc
.	.	.	.	24dLL 24g
.	.	.	.	[24a- [24cc
.	.	.	.	24a-] 24cc]
.	.	.	.	24d 24g
.	.	.	.	24a- 24cc
.	.	.	.	24d 24g
.	.	.	.	24a- 24cc
.	.	.	.	24dJJ 24g
=93	=93	=93	=93	=93
.	.	.	8qbn/ 8qff	.
8%9r	8%9ryy	4.GG 4.F 4.Bn	8bbnL	8rc
.	.	.	8aan	24fLL 24an
.	.	.	.	24B 24e
.	.	.	.	24f 24a
.	.	.	8ffJ	24B 24e
.	.	.	.	24f 24a
.	.	.	.	24BJJ 24e
.	.	32%3r	[2.ee	24rc
.	.	.	.	24fLL 24a
.	.	.	.	[24B [24e
.	.	32%3GGGL	.	.
.	.	.	.	24B] 24e]
.	.	.	.	24f 24a
.	.	32%3GG	.	.
.	.	.	.	24B 24e
.	.	.	.	24f 24a
.	.	32%3FJ	.	.
.	.	.	.	24B 24e
.	.	.	.	[24fJJ [24a
.	.	32%3AL	.	24fLL] 24a]
.	.	.	.	24B 24e
.	.	.	.	[24f [24a
.	.	32%3F	.	.
.	.	.	.	24f] 24a]
.	.	.	.	24B 24e
.	.	32%3GG	.	.
.	.	.	.	24f 24a
.	.	.	.	24B 24e
.	.	32%3FJ	.	.
.	.	.	.	24f 24a
.	.	.	.	24BJJ 24e
=94	=94	=94	=94	=94
8%9r	8%9ryy	32%3cL	4.ee]	24a-XLL 24cc
.	.	.	.	24d 24g
.	.	.	.	[24a- [24cc
.	.	32%3A-X	.	.
.	.	.	.	24a-] 24cc]
.	.	.	.	24d 24g
.	.	32%3BB-X	.	.
.	.	.	.	24a- 24cc
.	.	.	.	24d 24g
.	.	32%3BB-J	.	.
.	.	.	.	24a- 24cc
.	.	.	.	24dJJ 24g
.	.	32%3BBB-XL	4.ee	24rc
.	.	.	.	24a-LL 24cc
.	.	.	.	[24d [24g
.	.	32%3BB-	.	.
.	.	.	.	24d] 24g]
.	.	.	.	24a- 24cc
.	.	32%3BB-	.	.
.	.	.	.	24d 24g
.	.	.	.	24a- 24cc
.	.	32%3A-J	.	.
.	.	.	.	24d 24g
.	.	.	.	[24a-JJ [24cc
.	.	4r	4.ff	24a-LL] 24cc]
.	.	.	.	24d 24g
.	.	.	.	[24a- [24cc
.	.	.	.	24a-] 24cc]
.	.	.	.	24d 24g
.	.	.	.	24a- 24cc
.	.	8r	.	24d 24g
.	.	.	.	24a- 24cc
.	.	.	.	24dJJ 24g
=95	=95	=95	=95	=95
.	[8qEEE\ [8qEE	.	.	.
8%9r	2.EEE_ 2.EE_ [2.BBn [2.G#X	4.c#X	[2.gg#X	4.f#X 4.g#X 4.cc#X 4.ff#X
.	.	8rA	.	24dLL 24f#
.	.	.	.	24G#X 24c#X
.	.	.	.	[24d [24f#
.	.	[4A#X	.	24d] 24f#]
.	.	.	.	24G# 24c#
.	.	.	.	24d 24f#
.	.	.	.	24G# 24c#
.	.	.	.	24d 24f#
.	.	.	.	24G#JJ 24c#
.	4.EEE_ 4.EE_ 4.BB_ 4.G#_	8A#]	4.gg#_	24c#LL 24d
.	.	.	.	24f# 24g#
.	.	.	.	[24c# [24d
.	.	[4A#	.	24c#] 24d]
.	.	.	.	24f# 24g#
.	.	.	.	24c# 24d
.	.	.	.	24f# 24g#
.	.	.	.	24c# 24d
.	.	.	.	24f#JJ 24g#
=96	=96	=96	=96	=96
8%9r	2.EEE_ 2.EE_ 2.BB_ 2.G#_	2.A#_	2.gg#]	24g#XLL 24cc#X
.	.	.	.	24d 24f#X
.	.	.	.	24g# 24cc#
.	.	.	.	24d 24f#
.	.	.	.	24g# 24cc#
.	.	.	.	24d 24f#
.	.	.	.	24g# 24cc#
.	.	.	.	24d 24f#
.	.	.	.	24g#JJ 24cc#
.	.	.	.	24f#LL 24g#
.	.	.	.	24cc# 24dd
.	.	.	.	24f# 24g#
.	.	.	.	24cc# 24dd
.	.	.	.	24f# 24g#
.	.	.	.	24cc# 24dd
.	.	.	.	24f# 24g#
.	.	.	.	24cc# 24dd
.	.	.	.	24f#JJ 24g#
.	4.EEE] 4.EE] 4.BB] 4.G#]	4A#]	4raa	24ddLL 24ff#X
.	.	.	.	24g# 24cc#
.	.	.	.	24dd 24ff#
.	.	.	.	24g# 24cc#
.	.	.	.	24dd 24ff#
.	.	.	.	24g#JJ 24cc#
.	.	8B	8raa	8rc
=97	=97	=97	=97	=97
8%9r	[2.F#X [2.cn	[2.DD [2.AA	4raa	4rc
.	.	.	8raa	8rc
*	*	*	*	*tremolo
.	.	.	8ff#XL 8bb 8eee	32f#XLLL 32cc
.	.	.	.	32g#X 32b
.	.	.	.	32f# 32cc
.	.	.	.	32g# 32b
.	.	.	8ff# 8bb 8eee	32f# 32cc
.	.	.	.	32g# 32b
.	.	.	.	32f# 32cc
.	.	.	.	32g# 32b
.	.	.	[8ff#J [8bb [8eee	32f# 32cc
.	.	.	.	32g# 32b
.	.	.	.	32f# 32cc
.	.	.	.	32g# 32b
.	4.F#_ 4.c_	4.DD_ 4.AA_	8ff#L] 8bb] 8eee]	32f# 32cc
.	.	.	.	32g# 32b
.	.	.	.	32f# 32cc
.	.	.	.	32g# 32b
.	.	.	8ff# 8bb 8eee	32f# 32cc
.	.	.	.	32g# 32b
.	.	.	.	32f# 32cc
.	.	.	.	32g# 32b
.	.	.	8ff#J 8bb 8eee	32f# 32cc
.	.	.	.	32g# 32b
.	.	.	.	32f# 32cc
.	.	.	.	32g#JJJ 32b
*	*	*	*	*Xtremolo
=98	=98	=98	=98	=98
*	*	*	*	*tremolo
8%9r	2.F#_ 2.c_	2.DD_ 2.AA_	4raa	32f#XLLL 32cc
.	.	.	.	32g#X 32b
.	.	.	.	32f# 32cc
.	.	.	.	32g# 32b
.	.	.	.	32f# 32cc
.	.	.	.	32g# 32b
.	.	.	.	32f# 32cc
.	.	.	.	32g# 32b
.	.	.	8raa	32f# 32cc
.	.	.	.	32g# 32b
.	.	.	.	32f# 32cc
.	.	.	.	32g# 32b
.	.	.	8ff#XL 8bb 8eee	32f# 32cc
.	.	.	.	32g# 32b
.	.	.	.	32f# 32cc
.	.	.	.	32g# 32b
.	.	.	8ff# 8bb 8eee	32f# 32cc
.	.	.	.	32g# 32b
.	.	.	.	32f# 32cc
.	.	.	.	32g# 32b
.	.	.	[8ff#J [8bb [8eee	32f# 32cc
.	.	.	.	32g# 32b
.	.	.	.	32f# 32cc
.	.	.	.	32g#JJJ 32b
.	4F#_ 4c]	4.DD] 4.AA]	8ff#L] 8bb] 8eee]	32f#LLL 32cc
.	.	.	.	32g# 32b
.	.	.	.	32f# 32cc
.	.	.	.	32g# 32b
.	.	.	8ff#J 8bb 8eee	32f# 32cc
.	.	.	.	32g# 32b
.	.	.	.	32f# 32cc
.	.	.	.	32g#JJJ 32b
*	*	*	*	*Xtremolo
.	8F#] 8c	.	8raa	8rc
*	*	*	*v	*v
=99	=99	=99	=99
8%9r	4.c#X	[2.EE [2.BB [2.G#X	4r
.	.	.	8r
.	8rc	.	24dLL 24f#X
.	.	.	24G#X 24c#X
.	.	.	[24d [24f#
.	[4A#X	.	24d] 24f#]
.	.	.	24G# 24c#
.	.	.	24d 24f#
.	.	.	24G# 24c#
.	.	.	24d 24f#
.	.	.	24G#JJ 24c#
.	8A#]	4.EE_ 4.BB_ 4.G#_	24c#LL 24d
.	.	.	24f# 24g#X
.	.	.	[24c# [24d
.	[4A#	.	24c#] 24d]
.	.	.	24f# 24g#
.	.	.	24c# 24d
.	.	.	24f# 24g#
.	.	.	24c# 24d
.	.	.	24f#JJ 24g#
=100	=100	=100	=100
8%9r	2.A#_	2.EE_ 2.BB_ 2.G#_	24g#XLL 24cc#X
.	.	.	24d 24f#X
.	.	.	24g# 24cc#
.	.	.	24d 24f#
.	.	.	24g# 24cc#
.	.	.	24d 24f#
.	.	.	24g# 24cc#
.	.	.	24d 24f#
.	.	.	24g#JJ 24cc#
.	.	.	24f#LL 24g#
.	.	.	24cc# 24dd
.	.	.	24f# 24g#
.	.	.	24cc# 24dd
.	.	.	24f# 24g#
.	.	.	24cc# 24dd
.	.	.	24f# 24g#
.	.	.	24cc# 24dd
.	.	.	24f#JJ 24g#
.	4A#]	4.EE] 4.BB] 4.G#]	24ddLL 24ff#X
.	.	.	24g# 24cc#
.	.	.	24dd 24ff#
.	.	.	24g# 24cc#
.	.	.	24dd 24ff#
.	.	.	24g#JJ 24cc#
.	8B	.	8r
=101	=101	=101	=101
*	*	*	*^
8%9r	[2.F#X [2.cn	[2.DD [2.AA	4raa	4rc
.	.	.	8raa	8rc
*	*	*	*	*tremolo
.	.	.	8ff#XL 8bb 8eee	32f#XLLL 32cc
.	.	.	.	32g#X 32b
.	.	.	.	32f# 32cc
.	.	.	.	32g# 32b
.	.	.	8ff# 8bb 8eee	32f# 32cc
.	.	.	.	32g# 32b
.	.	.	.	32f# 32cc
.	.	.	.	32g# 32b
.	.	.	[8ff#J [8bb [8eee	32f# 32cc
.	.	.	.	32g# 32b
.	.	.	.	32f# 32cc
.	.	.	.	32g# 32b
.	4.F#_ 4.c_	4.DD_ 4.AA_	8ff#L] 8bb] 8eee]	32f# 32cc
.	.	.	.	32g# 32b
.	.	.	.	32f# 32cc
.	.	.	.	32g# 32b
.	.	.	8ff# 8bb 8eee	32f# 32cc
.	.	.	.	32g# 32b
.	.	.	.	32f# 32cc
.	.	.	.	32g# 32b
.	.	.	8ff#J 8bb 8eee	32f# 32cc
.	.	.	.	32g# 32b
.	.	.	.	32f# 32cc
.	.	.	.	32g#JJJ 32b
*	*	*	*	*Xtremolo
=102	=102	=102	=102	=102
*	*	*	*	*tremolo
8%9r	2.F#_ 2.c_	2.DD_ 2.AA_	4raa	32f#XLLL 32cc
.	.	.	.	32g#X 32b
.	.	.	.	32f# 32cc
.	.	.	.	32g# 32b
.	.	.	.	32f# 32cc
.	.	.	.	32g# 32b
.	.	.	.	32f# 32cc
.	.	.	.	32g# 32b
.	.	.	8raa	32f# 32cc
.	.	.	.	32g# 32b
.	.	.	.	32f# 32cc
.	.	.	.	32g# 32b
.	.	.	8ff#XL 8bb 8eee	32f# 32cc
.	.	.	.	32g# 32b
.	.	.	.	32f# 32cc
.	.	.	.	32g# 32b
.	.	.	8ff# 8bb 8eee	32f# 32cc
.	.	.	.	32g# 32b
.	.	.	.	32f# 32cc
.	.	.	.	32g# 32b
.	.	.	[8ff#J [8bb [8eee	32f# 32cc
.	.	.	.	32g# 32b
.	.	.	.	32f# 32cc
.	.	.	.	32g#JJJ 32b
.	4F#_ 4c]	4.DD] 4.AA]	8ff#L] 8bb] 8eee]	32f#LLL 32cc
.	.	.	.	32g# 32b
.	.	.	.	32f# 32cc
.	.	.	.	32g# 32b
.	.	.	8ff#J 8bb 8eee	32f# 32cc
.	.	.	.	32g# 32b
.	.	.	.	32f# 32cc
.	.	.	.	32g#JJJ 32b
*	*	*	*	*Xtremolo
.	8F#] 8c	.	8raa	8rc
*	*	*	*v	*v
=103	=103	=103	=103
8%9r	4.c#X	[2.EE [2.BB [2.G#X	4r
.	.	.	8r
.	8rc	.	24dLL 24f#X
.	.	.	24G#X 24c#X
.	.	.	[24d [24f#
.	[4A#X	.	24d] 24f#]
.	.	.	24G# 24c#
.	.	.	24d 24f#
.	.	.	24G# 24c#
.	.	.	24d 24f#
.	.	.	24G#JJ 24c#
.	8A#]	4.EE_ 4.BB_ 4.G#_	24c#LL 24d
.	.	.	24f# 24g#X
.	.	.	[24c# [24d
.	[4A#	.	24c#] 24d]
.	.	.	24f# 24g#
.	.	.	24c# 24d
.	.	.	24f# 24g#
.	.	.	24c# 24d
.	.	.	24f#JJ 24g#
=104	=104	=104	=104
8%9r	2.A#_	2.EE_ 2.BB_ 2.G#_	24g#XLL 24cc#X
.	.	.	24d 24f#X
.	.	.	24g# 24cc#
.	.	.	24d 24f#
.	.	.	24g# 24cc#
.	.	.	24d 24f#
.	.	.	24g# 24cc#
.	.	.	24d 24f#
.	.	.	24g#JJ 24cc#
.	.	.	24f#LL 24g#
.	.	.	24cc# 24dd
.	.	.	24f# 24g#
.	.	.	24cc# 24dd
.	.	.	24f# 24g#
.	.	.	24cc# 24dd
.	.	.	24f# 24g#
.	.	.	24cc# 24dd
.	.	.	24f#JJ 24g#
.	4.A#]	4.EE] 4.BB] 4.G#]	24ddLL 24ff#X
.	.	.	24g# 24cc#
.	.	.	24dd 24ff#
.	.	.	24g# 24cc#
.	.	.	24dd 24ff#
.	.	.	24g# 24cc#
.	.	.	24dd 24ff#
.	.	.	24g# 24cc#
.	.	.	24ddJJ 24ff#
=105	=105	=105	=105
8%9r	4rc	[2.EE [2.BB [2.G#X	4r
.	8rc	.	8r
.	8rc	.	24f#XLL 24g#X
.	.	.	24c#X 24d
.	.	.	[24f# [24g#
.	[4A#X	.	24f#] 24g#]
.	.	.	24c# 24d
.	.	.	24f# 24g#
.	.	.	24c# 24d
.	.	.	24f# 24g#
.	.	.	24c#JJ 24d
.	8A#]	4.EE_ 4.BB_ 4.G#_	24dLL 24f#
.	.	.	24g# 24cc#X
.	.	.	[24d [24f#
.	[4A#	.	24d] 24f#]
.	.	.	24g# 24cc#
.	.	.	24d 24f#
.	.	.	24g# 24cc#
.	.	.	24d 24f#
.	.	.	24g#JJ 24cc#
=106	=106	=106	=106
8%9r	2.A#_	2.EE_ 2.BB_ 2.G#_	24cc#XLL 24dd
.	.	.	24f#X 24g#X
.	.	.	24cc# 24dd
.	.	.	24f# 24g#
.	.	.	24cc# 24dd
.	.	.	24f# 24g#
.	.	.	24cc# 24dd
.	.	.	24f# 24g#
.	.	.	24cc#JJ 24dd
.	.	.	24g#LL 24cc#
.	.	.	24dd 24ff#X
.	.	.	24g# 24cc#
.	.	.	24dd 24ff#
.	.	.	24g# 24cc#
.	.	.	24dd 24ff#
.	.	.	24g# 24cc#
.	.	.	24dd 24ff#
.	.	.	24g#JJ 24cc#
.	4A#]	4.EE] 4.BB] 4.G#]	24ff#LL 24gg#X
.	.	.	24cc# 24dd
.	.	.	24ff# 24gg#
.	.	.	24cc# 24dd
.	.	.	24ff# 24gg#
.	.	.	24cc# 24dd
.	8c#X	.	24ff# 24gg#
.	.	.	24cc# 24dd
.	.	.	24ff#JJ 24gg#
=107	=107	=107	=107
*	*	*	*^
8%9r	[2.G#X [2.d	[2.EE [2.BB	4raa	4rc
.	.	.	8raa	8rc
*	*	*	*	*tremolo
.	.	.	8gg#XL 8ccc#X 8fff#X	32g#XLLL 32dd
.	.	.	.	32a#X 32cc#X
.	.	.	.	32g# 32dd
.	.	.	.	32a# 32cc#
.	.	.	8gg# 8ccc# 8fff#	32g# 32dd
.	.	.	.	32a# 32cc#
.	.	.	.	32g# 32dd
.	.	.	.	32a# 32cc#
.	.	.	[8gg#J [8ccc# [8fff#	32g# 32dd
.	.	.	.	32a# 32cc#
.	.	.	.	32g# 32dd
.	.	.	.	32a#JJJ 32cc#
.	4G#] 4d]	4.EE] 4.BB]	8gg#L] 8ccc#] 8fff#]	32g#LLL 32dd
.	.	.	.	32a# 32cc#
.	.	.	.	32g# 32dd
.	.	.	.	32a# 32cc#
.	.	.	8gg#J 8ccc# 8fff#	32g# 32dd
.	.	.	.	32a# 32cc#
.	.	.	.	32g# 32dd
.	.	.	.	32a#JJJ 32cc#
*	*	*	*	*Xtremolo
.	16rc	.	8raa	8rc
.	16A#X 16c#X	.	.	.
=108	=108	=108	=108	=108
8%9r	[2.G#X [2.d	[2.EE [2.BB	4raa	4rc
.	.	.	8raa	8rc
*	*	*	*	*tremolo
.	.	.	8gg#XL 8ccc#X 8fff#X	32g#XLLL 32dd
.	.	.	.	32a#X 32cc#X
.	.	.	.	32g# 32dd
.	.	.	.	32a# 32cc#
.	.	.	8gg# 8ccc# 8fff#	32g# 32dd
.	.	.	.	32a# 32cc#
.	.	.	.	32g# 32dd
.	.	.	.	32a# 32cc#
.	.	.	[8gg#J [8ccc# [8fff#	32g# 32dd
.	.	.	.	32a# 32cc#
.	.	.	.	32g# 32dd
.	.	.	.	32a#JJJ 32cc#
.	4.G#_ 4.d_	4.EE_ 4.BB_	8gg#L] 8ccc#] 8fff#]	32g#LLL 32dd
.	.	.	.	32a# 32cc#
.	.	.	.	32g# 32dd
.	.	.	.	32a# 32cc#
.	.	.	8gg# 8ccc# 8fff#	32g# 32dd
.	.	.	.	32a# 32cc#
.	.	.	.	32g# 32dd
.	.	.	.	32a# 32cc#
.	.	.	8gg#J 8ccc# 8fff#	32g# 32dd
.	.	.	.	32a# 32cc#
.	.	.	.	32g# 32dd
.	.	.	.	32a#JJJ 32cc#
=109	=109	=109	=109	=109
8%9r	8G#L] 8d]	2.EE_ 2.BB_	4raa	32g#XLLL 32dd
.	.	.	.	32a#X 32cc#X
.	.	.	.	32g# 32dd
.	.	.	.	32a# 32cc#
.	8A#X 8c#X	.	.	32g# 32dd
.	.	.	.	32a# 32cc#
.	.	.	.	32g# 32dd
.	.	.	.	32a# 32cc#
.	8G#XJ 8d	.	8raa	32g# 32dd
.	.	.	.	32a# 32cc#
.	.	.	.	32g# 32dd
.	.	.	.	32a# 32cc#
.	8A# 8f#X	.	4raa	32g# 32dd
.	.	.	.	32a# 32cc#
.	.	.	.	32g# 32dd
.	.	.	.	32a# 32cc#
.	[4G# [4c#	.	.	32g# 32dd
.	.	.	.	32a# 32cc#
.	.	.	.	32g# 32dd
.	.	.	.	32a# 32cc#
.	.	.	8raa	32g# 32dd
.	.	.	.	32a# 32cc#
.	.	.	.	32g# 32dd
.	.	.	.	32a#JJJ 32cc#
.	4G#] 4c#]	4.EE] 4.BB]	4raa	32g#LLL 32dd
.	.	.	.	32a# 32cc#
.	.	.	.	32g# 32dd
.	.	.	.	32a# 32cc#
.	.	.	.	32g# 32dd
.	.	.	.	32a# 32cc#
.	.	.	.	32g# 32dd
.	.	.	.	32a# 32cc#
.	8F#X 8A#	.	8raa	32g# 32dd
.	.	.	.	32a# 32cc#
.	.	.	.	32g# 32dd
.	.	.	.	32a#JJJ 32cc#
=110	=110	=110	=110	=110
8%9r	8G#XL 8d	[2.EE [2.BB	4raa	32g#XLLL 32dd
.	.	.	.	32a#X 32cc#X
.	.	.	.	32g# 32dd
.	.	.	.	32a# 32cc#
.	8A#X 8c#X	.	.	32g# 32dd
.	.	.	.	32a# 32cc#
.	.	.	.	32g# 32dd
.	.	.	.	32a# 32cc#
.	8G#J 8d	.	8raa	32g# 32dd
.	.	.	.	32a# 32cc#
.	.	.	.	32g# 32dd
.	.	.	.	32a# 32cc#
.	8A#L 8f#X	.	4raa	32g# 32dd
.	.	.	.	32a# 32cc#
.	.	.	.	32g# 32dd
.	.	.	.	32a# 32cc#
.	8G# 8c#	.	.	32g# 32dd
.	.	.	.	32a# 32cc#
.	.	.	.	32g# 32dd
.	.	.	.	32a# 32cc#
.	8F#XJ 8A#	.	8raa	32g# 32dd
.	.	.	.	32a# 32cc#
.	.	.	.	32g# 32dd
.	.	.	.	32a#JJJ 32cc#
.	8G#L 8d	4.EE] 4.BB]	4raa	32g#LLL 32dd
.	.	.	.	32a# 32cc#
.	.	.	.	32g# 32dd
.	.	.	.	32a# 32cc#
.	8A# 8c#	.	.	32g# 32dd
.	.	.	.	32a# 32cc#
.	.	.	.	32g# 32dd
.	.	.	.	32a#JJJ 32cc#
*	*	*	*	*Xtremolo
.	8G#J 8d	.	8raa	8rc
=111	=111	=111	=111	=111
8%9r	8A#X 8f#X	[2.GG [2.D	4raa	4rc
.	[4B [4fn	.	.	.
.	.	.	8raa	8rc
*	*	*	*	*tremolo
.	2.B_ 2.f_	.	8bbL 8eee 8aaa	32bLLL 32ff
.	.	.	.	32cc#X 32ee
.	.	.	.	32b 32ff
.	.	.	.	32cc# 32ee
.	.	.	8bb 8eee 8aaa	32b 32ff
.	.	.	.	32cc# 32ee
.	.	.	.	32b 32ff
.	.	.	.	32cc# 32ee
.	.	.	[8bbJ [8eee [8aaa	32b 32ff
.	.	.	.	32cc# 32ee
.	.	.	.	32b 32ff
.	.	.	.	32cc#JJJ 32ee
.	.	4.GG_ 4.D_	8bbL] 8eee] 8aaa]	32bLLL 32ff
.	.	.	.	32cc# 32ee
.	.	.	.	32b 32ff
.	.	.	.	32cc# 32ee
.	.	.	8bb 8eee 8aaa	32b 32ff
.	.	.	.	32cc# 32ee
.	.	.	.	32b 32ff
.	.	.	.	32cc# 32ee
.	.	.	[8bbJ [8eee [8aaa	32b 32ff
.	.	.	.	32cc# 32ee
.	.	.	.	32b 32ff
.	.	.	.	32cc#JJJ 32ee
*	*	*	*	*Xtremolo
=112	=112	=112	=112	=112
*	*	*	*	*tremolo
8%9r	2.B_ 2.f_	2.GG_ 2.D_	4.bb] 4.eee] 4.aaa]	32bLLL 32ff
.	.	.	.	32cc#X 32ee
.	.	.	.	32b 32ff
.	.	.	.	32cc# 32ee
.	.	.	.	32b 32ff
.	.	.	.	32cc# 32ee
.	.	.	.	32b 32ff
.	.	.	.	32cc# 32ee
.	.	.	.	32b 32ff
.	.	.	.	32cc# 32ee
.	.	.	.	32b 32ff
.	.	.	.	32cc# 32ee
.	.	.	8bbL 8eee 8aaa	32b 32ff
.	.	.	.	32cc# 32ee
.	.	.	.	32b 32ff
.	.	.	.	32cc# 32ee
.	.	.	8bb 8eee 8aaa	32b 32ff
.	.	.	.	32cc# 32ee
.	.	.	.	32b 32ff
.	.	.	.	32cc# 32ee
.	.	.	[8bbJ [8eee [8aaa	32b 32ff
.	.	.	.	32cc# 32ee
.	.	.	.	32b 32ff
.	.	.	.	32cc#JJJ 32ee
.	4B] 4f]	4.GG] 4.D]	8bbL] 8eee] 8aaa]	32bLLL 32ff
.	.	.	.	32cc# 32ee
.	.	.	.	32b 32ff
.	.	.	.	32cc# 32ee
.	.	.	8bbJ 8eee 8aaa	32b 32ff
.	.	.	.	32cc# 32ee
.	.	.	.	32b 32ff
.	.	.	.	32cc#JJJ 32ee
*	*	*	*	*Xtremolo
.	16rc	.	8raa	8rc
.	16c#X 16e	.	.	.
=113	=113	=113	=113	=113
8%9r	[2.B [2.f	[2.GG [2.D	4raa	4rc
.	.	.	8raa	8rc
*	*	*	*	*tremolo
.	.	.	8bbL 8eee 8aaa	32bLLL 32ff
.	.	.	.	32cc#X 32ee
.	.	.	.	32b 32ff
.	.	.	.	32cc# 32ee
.	.	.	8bb 8eee 8aaa	32b 32ff
.	.	.	.	32cc# 32ee
.	.	.	.	32b 32ff
.	.	.	.	32cc# 32ee
.	.	.	[8bbJ [8eee [8aaa	32b 32ff
.	.	.	.	32cc# 32ee
.	.	.	.	32b 32ff
.	.	.	.	32cc#JJJ 32ee
.	4B] 4f]	4.GG] 4.D]	8bbL] 8eee] 8aaa]	32bLLL 32ff
.	.	.	.	32cc# 32ee
.	.	.	.	32b 32ff
.	.	.	.	32cc# 32ee
.	.	.	8bbJ 8eee 8aaa	32b 32ff
.	.	.	.	32cc# 32ee
.	.	.	.	32b 32ff
.	.	.	.	32cc#JJJ 32ee
*	*	*	*	*Xtremolo
.	16rc	.	8raa	8rc
.	16c#X 16e	.	.	.
=114	=114	=114	=114	=114
8%9r	[2.B [2.f	[2.GG [2.D	4raa	4rc
.	.	.	8raa	8rc
*	*	*	*	*tremolo
.	.	.	8bbL 8eee 8aaa	32bLLL 32ff
.	.	.	.	32cc#X 32ee
.	.	.	.	32b 32ff
.	.	.	.	32cc# 32ee
.	.	.	8bb 8eee 8aaa	32b 32ff
.	.	.	.	32cc# 32ee
.	.	.	.	32b 32ff
.	.	.	.	32cc# 32ee
.	.	.	[8bbJ [8eee [8aaa	32b 32ff
.	.	.	.	32cc# 32ee
.	.	.	.	32b 32ff
.	.	.	.	32cc#JJJ 32ee
.	4.B_ 4.f_	4.GG_ 4.D_	8bbL] 8eee] 8aaa]	32bLLL 32ff
.	.	.	.	32cc# 32ee
.	.	.	.	32b 32ff
.	.	.	.	32cc# 32ee
.	.	.	8bb 8eee 8aaa	32b 32ff
.	.	.	.	32cc# 32ee
.	.	.	.	32b 32ff
.	.	.	.	32cc# 32ee
.	.	.	8bbJ 8eee 8aaa	32b 32ff
.	.	.	.	32cc# 32ee
.	.	.	.	32b 32ff
.	.	.	.	32cc#JJJ 32ee
=115	=115	=115	=115	=115
8%9r	8BL] 8f]	2.GG_ 2.D_	4raa	32bLLL 32ff
.	.	.	.	32cc#X 32ee
.	.	.	.	32b 32ff
.	.	.	.	32cc# 32ee
.	8c#X 8e	.	.	32b 32ff
.	.	.	.	32cc# 32ee
.	.	.	.	32b 32ff
.	.	.	.	32cc# 32ee
.	8BJ 8f	.	8raa	32b 32ff
.	.	.	.	32cc# 32ee
.	.	.	.	32b 32ff
.	.	.	.	32cc# 32ee
.	8c# 8a	.	4raa	32b 32ff
.	.	.	.	32cc# 32ee
.	.	.	.	32b 32ff
.	.	.	.	32cc# 32ee
.	[4B [4e	.	.	32b 32ff
.	.	.	.	32cc# 32ee
.	.	.	.	32b 32ff
.	.	.	.	32cc# 32ee
.	.	.	8raa	32b 32ff
.	.	.	.	32cc# 32ee
.	.	.	.	32b 32ff
.	.	.	.	32cc#JJJ 32ee
.	4B] 4e]	4.GG] 4.D]	4raa	32bLLL 32ff
.	.	.	.	32cc# 32ee
.	.	.	.	32b 32ff
.	.	.	.	32cc# 32ee
.	.	.	.	32b 32ff
.	.	.	.	32cc# 32ee
.	.	.	.	32b 32ff
.	.	.	.	32cc# 32ee
.	8A 8c#	.	8raa	32b 32ff
.	.	.	.	32cc# 32ee
.	.	.	.	32b 32ff
.	.	.	.	32cc#JJJ 32ee
=116	=116	=116	=116	=116
8%9r	8BL 8f	[2.GG [2.D	4raa	32bLLL 32ff
.	.	.	.	32cc#X 32ee
.	.	.	.	32b 32ff
.	.	.	.	32cc# 32ee
.	8c#X 8e	.	.	32b 32ff
.	.	.	.	32cc# 32ee
.	.	.	.	32b 32ff
.	.	.	.	32cc# 32ee
.	8BJ 8f	.	8raa	32b 32ff
.	.	.	.	32cc# 32ee
.	.	.	.	32b 32ff
.	.	.	.	32cc# 32ee
.	8c#L 8a	.	4raa	32b 32ff
.	.	.	.	32cc# 32ee
.	.	.	.	32b 32ff
.	.	.	.	32cc# 32ee
.	8B 8e	.	.	32b 32ff
.	.	.	.	32cc# 32ee
.	.	.	.	32b 32ff
.	.	.	.	32cc# 32ee
.	8AJ 8c#	.	8raa	32b 32ff
.	.	.	.	32cc# 32ee
.	.	.	.	32b 32ff
.	.	.	.	32cc#JJJ 32ee
.	8BL 8f	4.GG] 4.D]	4raa	32bLLL 32ff
.	.	.	.	32cc# 32ee
.	.	.	.	32b 32ff
.	.	.	.	32cc# 32ee
.	8c# 8e	.	.	32b 32ff
.	.	.	.	32cc# 32ee
.	.	.	.	32b 32ff
.	.	.	.	32cc# 32ee
.	8BJ 8f	.	8r	32b 32ff
.	.	.	.	32cc# 32ee
.	.	.	.	32b 32ff
.	.	.	.	32cc#JJJ 32ee
*	*	*	*	*Xtremolo
=117	=117	=117	=117	=117
8%9r	8c#X 8a	[2.BB-X [2.F	4rb	4rb
.	[4d [4a-X	.	.	.
.	.	.	8raa	8rc
*	*	*	*	*tremolo
.	2.d_ 2.a-_	.	8dddL 8ggg 8ccccn	32ddLLL 32aa-X
.	.	.	.	32ee 32gg
.	.	.	.	32dd 32aa-
.	.	.	.	32ee 32gg
.	.	.	8ddd 8ggg 8cccc	32dd 32aa-
.	.	.	.	32ee 32gg
.	.	.	.	32dd 32aa-
.	.	.	.	32ee 32gg
.	.	.	[8dddJ [8ggg [8cccc	32dd 32aa-
.	.	.	.	32ee 32gg
.	.	.	.	32dd 32aa-
.	.	.	.	32ee 32gg
.	.	4.BB-_ 4.F_	8dddL] 8ggg] 8cccc]	32dd 32aa-
.	.	.	.	32ee 32gg
.	.	.	.	32dd 32aa-
.	.	.	.	32ee 32gg
.	.	.	8ddd 8ggg 8cccc	32dd 32aa-
.	.	.	.	32ee 32gg
.	.	.	.	32dd 32aa-
.	.	.	.	32ee 32gg
.	.	.	[8dddJ [8ggg [8cccc	32dd 32aa-
.	.	.	.	32ee 32gg
.	.	.	.	32dd 32aa-
.	.	.	.	32eeJJJ 32gg
*	*	*	*	*Xtremolo
=118	=118	=118	=118	=118
*	*	*	*	*tremolo
8%9r	2.d_ 2.a-_	2.BB-_ 2.F_	4.ddd] 4.ggg] 4.cccc]	32ddLLL 32aa-X
.	.	.	.	32ee 32gg
.	.	.	.	32dd 32aa-
.	.	.	.	32ee 32gg
.	.	.	.	32dd 32aa-
.	.	.	.	32ee 32gg
.	.	.	.	32dd 32aa-
.	.	.	.	32ee 32gg
.	.	.	.	32dd 32aa-
.	.	.	.	32ee 32gg
.	.	.	.	32dd 32aa-
.	.	.	.	32ee 32gg
.	.	.	8dddL 8ggg 8cccc	32dd 32aa-
.	.	.	.	32ee 32gg
.	.	.	.	32dd 32aa-
.	.	.	.	32ee 32gg
.	.	.	8ddd 8ggg 8cccc	32dd 32aa-
.	.	.	.	32ee 32gg
.	.	.	.	32dd 32aa-
.	.	.	.	32ee 32gg
.	.	.	[8dddJ [8ggg [8cccc	32dd 32aa-
.	.	.	.	32ee 32gg
.	.	.	.	32dd 32aa-
.	.	.	.	32eeJJJ 32gg
.	4.d_ 4.a-_	4.BB-] 4.F]	8dddL] 8ggg] 8cccc]	32ddLLL 32aa-
.	.	.	.	32ee 32gg
.	.	.	.	32dd 32aa-
.	.	.	.	32ee 32gg
.	.	.	8ddd 8ggg 8cccc	32dd 32aa-
.	.	.	.	32ee 32gg
.	.	.	.	32dd 32aa-
.	.	.	.	32ee 32gg
.	.	.	[8dddJ [8ggg [8cccc	32dd 32aa-
.	.	.	.	32ee 32gg
.	.	.	.	32dd 32aa-
.	.	.	.	32eeJJJ 32gg
*	*	*	*	*Xtremolo
=119	=119	=119	=119	=119
*	*	*	*	*tremolo
8%9r	4.d] 4.a-]	[2.BB-X [2.F	4.ddd] 4.ggg] 4.cccc]	32ddLLL 32aa-X
.	.	.	.	32ee 32gg
.	.	.	.	32dd 32aa-
.	.	.	.	32ee 32gg
.	.	.	.	32dd 32aa-
.	.	.	.	32ee 32gg
.	.	.	.	32dd 32aa-
.	.	.	.	32ee 32gg
.	.	.	.	32dd 32aa-
.	.	.	.	32ee 32gg
.	.	.	.	32dd 32aa-
.	.	.	.	32ee 32gg
.	[2.d [2.a-X	.	4raa	32dd 32aa-
.	.	.	.	32ee 32gg
.	.	.	.	32dd 32aa-
.	.	.	.	32ee 32gg
.	.	.	.	32dd 32aa-
.	.	.	.	32ee 32gg
.	.	.	.	32dd 32aa-
.	.	.	.	32ee 32gg
.	.	.	8raa	32dd 32aa-
.	.	.	.	32ee 32gg
.	.	.	.	32dd 32aa-
.	.	.	.	32eeJJJ 32gg
.	.	4.BB-_ 4.F_	4raa	32ddLLL 32aa-
.	.	.	.	32ee 32gg
.	.	.	.	32dd 32aa-
.	.	.	.	32ee 32gg
.	.	.	.	32dd 32aa-
.	.	.	.	32ee 32gg
.	.	.	.	32dd 32aa-
.	.	.	.	32ee 32gg
.	.	.	8raa	32dd 32aa-
.	.	.	.	32ee 32gg
.	.	.	.	32dd 32aa-
.	.	.	.	32eeJJJ 32gg
=120	=120	=120	=120	=120
8%9r	2.d] 2.a-]	2.BB-_ 2.F_	4raa	32ddLLL 32aa-X
.	.	.	.	32ee 32gg
.	.	.	.	32dd 32aa-
.	.	.	.	32ee 32gg
.	.	.	.	32dd 32aa-
.	.	.	.	32ee 32gg
.	.	.	.	32dd 32aa-
.	.	.	.	32ee 32gg
.	.	.	8raa	32dd 32aa-
.	.	.	.	32ee 32gg
.	.	.	.	32dd 32aa-
.	.	.	.	32ee 32gg
.	.	.	4raa	32dd 32aa-
.	.	.	.	32ee 32gg
.	.	.	.	32dd 32aa-
.	.	.	.	32ee 32gg
.	.	.	.	32dd 32aa-
.	.	.	.	32ee 32gg
.	.	.	.	32dd 32aa-
.	.	.	.	32ee 32gg
.	.	.	8raa	32dd 32aa-
.	.	.	.	32ee 32gg
.	.	.	.	32dd 32aa-
.	.	.	.	32eeJJJ 32gg
.	4.d 4.g	4.BB-] 4.F]	4raa	32ddLLL 32aa-
.	.	.	.	32ee 32gg
.	.	.	.	32dd 32aa-
.	.	.	.	32ee 32gg
.	.	.	.	32dd 32aa-
.	.	.	.	32ee 32gg
.	.	.	.	32dd 32aa-
.	.	.	.	32ee 32gg
.	.	.	8raa	32dd 32aa-
.	.	.	.	32ee 32gg
.	.	.	.	32dd 32aa-
.	.	.	.	32eeJJJ 32gg
*	*	*	*	*Xtremolo
=121	=121	=121	=121	=121
8%9r	8c#X 8an	[2.BB-X [2.F	4rb	4rb
.	[4d [4a-X	.	.	.
.	.	.	8raa	8rc
*	*	*	*	*tremolo
.	2.d_ 2.a-_	.	8dddL 8ggg 8ccccn	32ddLLL 32aa-X
.	.	.	.	32ee 32gg
.	.	.	.	32dd 32aa-
.	.	.	.	32ee 32gg
.	.	.	8ddd 8ggg 8cccc	32dd 32aa-
.	.	.	.	32ee 32gg
.	.	.	.	32dd 32aa-
.	.	.	.	32ee 32gg
.	.	.	[8dddJ [8ggg [8cccc	32dd 32aa-
.	.	.	.	32ee 32gg
.	.	.	.	32dd 32aa-
.	.	.	.	32ee 32gg
.	.	4.BB-_ 4.F_	8dddL] 8ggg] 8cccc]	32dd 32aa-
.	.	.	.	32ee 32gg
.	.	.	.	32dd 32aa-
.	.	.	.	32ee 32gg
.	.	.	8ddd 8ggg 8cccc	32dd 32aa-
.	.	.	.	32ee 32gg
.	.	.	.	32dd 32aa-
.	.	.	.	32ee 32gg
.	.	.	[8dddJ [8ggg [8cccc	32dd 32aa-
.	.	.	.	32ee 32gg
.	.	.	.	32dd 32aa-
.	.	.	.	32eeJJJ 32gg
*	*	*	*	*Xtremolo
=122	=122	=122	=122	=122
*	*	*	*	*tremolo
8%9r	2.d_ 2.a-_	2.BB-_ 2.F_	4.ddd] 4.ggg] 4.cccc]	32ddLLL 32aa-X
.	.	.	.	32ee 32gg
.	.	.	.	32dd 32aa-
.	.	.	.	32ee 32gg
.	.	.	.	32dd 32aa-
.	.	.	.	32ee 32gg
.	.	.	.	32dd 32aa-
.	.	.	.	32ee 32gg
.	.	.	.	32dd 32aa-
.	.	.	.	32ee 32gg
.	.	.	.	32dd 32aa-
.	.	.	.	32eeJJJ 32gg
.	.	.	8dddL 8ggg 8cccc	32ddLLL 32aa-
.	.	.	.	32ee 32gg
.	.	.	.	32dd 32aa-
.	.	.	.	32ee 32gg
.	.	.	8ddd 8ggg 8cccc	32dd 32aa-
.	.	.	.	32ee 32gg
.	.	.	.	32dd 32aa-
.	.	.	.	32ee 32gg
.	.	.	[8dddJ [8ggg [8cccc	32dd 32aa-
.	.	.	.	32ee 32gg
.	.	.	.	32dd 32aa-
.	.	.	.	32ee 32gg
.	4.d_ 4.a-_	4.BB-] 4.F]	8dddL] 8ggg] 8cccc]	32dd 32aa-
.	.	.	.	32ee 32gg
.	.	.	.	32dd 32aa-
.	.	.	.	32ee 32gg
.	.	.	8ddd 8ggg 8cccc	32dd 32aa-
.	.	.	.	32ee 32gg
.	.	.	.	32dd 32aa-
.	.	.	.	32ee 32gg
.	.	.	[8dddJ [8ggg [8cccc	32dd 32aa-
.	.	.	.	32ee 32gg
.	.	.	.	32dd 32aa-
.	.	.	.	32eeJJJ 32gg
*	*	*	*	*Xtremolo
=123	=123	=123	=123	=123
*	*	*	*	*tremolo
8%9r	4.d] 4.a-]	[2.BB-X [2.F	4.ddd] 4.ggg] 4.cccc]	32ddLLL 32aa-X
.	.	.	.	32ee 32gg
.	.	.	.	32dd 32aa-
.	.	.	.	32ee 32gg
.	.	.	.	32dd 32aa-
.	.	.	.	32ee 32gg
.	.	.	.	32dd 32aa-
.	.	.	.	32ee 32gg
.	.	.	.	32dd 32aa-
.	.	.	.	32ee 32gg
.	.	.	.	32dd 32aa-
.	.	.	.	32ee 32gg
.	2.d 2.a-X	.	4raa	32dd 32aa-
.	.	.	.	32ee 32gg
.	.	.	.	32dd 32aa-
.	.	.	.	32ee 32gg
.	.	.	.	32dd 32aa-
.	.	.	.	32ee 32gg
.	.	.	.	32dd 32aa-
.	.	.	.	32ee 32gg
.	.	.	8raa	32dd 32aa-
.	.	.	.	32ee 32gg
.	.	.	.	32dd 32aa-
.	.	.	.	32eeJJJ 32gg
.	.	4.BB-_ 4.F_	4raa	32ddLLL 32aa-
.	.	.	.	32ee 32gg
.	.	.	.	32dd 32aa-
.	.	.	.	32ee 32gg
.	.	.	.	32dd 32aa-
.	.	.	.	32ee 32gg
.	.	.	.	32dd 32aa-
.	.	.	.	32ee 32gg
.	.	.	8raa	32dd 32aa-
.	.	.	.	32ee 32gg
.	.	.	.	32dd 32aa-
.	.	.	.	32eeJJJ 32gg
=124	=124	=124	=124	=124
8%9r	2.d 2.a-X	2.BB-_ 2.F_	4raa	32ddLLL 32aa-X
.	.	.	.	32ee 32gg
.	.	.	.	32dd 32aa-
.	.	.	.	32ee 32gg
.	.	.	.	32dd 32aa-
.	.	.	.	32ee 32gg
.	.	.	.	32dd 32aa-
.	.	.	.	32ee 32gg
.	.	.	8raa	32dd 32aa-
.	.	.	.	32ee 32gg
.	.	.	.	32dd 32aa-
.	.	.	.	32ee 32gg
.	.	.	4raa	32dd 32aa-
.	.	.	.	32ee 32gg
.	.	.	.	32dd 32aa-
.	.	.	.	32ee 32gg
.	.	.	.	32dd 32aa-
.	.	.	.	32ee 32gg
.	.	.	.	32dd 32aa-
.	.	.	.	32ee 32gg
.	.	.	8raa	32dd 32aa-
.	.	.	.	32ee 32gg
.	.	.	.	32dd 32aa-
.	.	.	.	32eeJJJ 32gg
.	4.d 4.f 4.an	4.BB-] 4.F]	4raa	32ddLLL 32aa-
.	.	.	.	32ee 32gg
.	.	.	.	32dd 32aa-
.	.	.	.	32ee 32gg
.	.	.	.	32dd 32aa-
.	.	.	.	32ee 32gg
.	.	.	.	32dd 32aa-
.	.	.	.	32ee 32gg
.	.	.	8raa	32dd 32aa-
.	.	.	.	32ee 32gg
.	.	.	.	32dd 32aa-
.	.	.	.	32eeJJJ 32gg
*	*	*	*	*Xtremolo
*clefF4	*clefG2	*	*	*
=125	=125	=125	=125	=125
[8qEEE/ [8qEE	.	.	.	.
2.EEE] 2.EE_ [2.BBn [2.G#X	4raa	[2.Bn [2.e [2.g#X [2.a#X	4raa	4rc
.	8ee	.	8raa	8rc
.	[2.dd#X	.	4raa	4rc
.	.	.	8raa	8rc
*	*	*	*	*tremolo
4.EE_ 4.BB_ 4.G#_	.	4.B_ 4.e_ 4.g#_ 4.a#_	8ddd#XL 8ggg#X 8cccc#X	32dd#XLLL 32aa#X
.	.	.	.	32ee 32gg#X
.	.	.	.	32dd# 32aa#
.	.	.	.	32ee 32gg#
.	.	.	8ddd# 8ggg# 8cccc#	32dd# 32aa#
.	.	.	.	32ee 32gg#
.	.	.	.	32dd# 32aa#
.	.	.	.	32ee 32gg#
.	.	.	[8ddd#J [8ggg# [8cccc#	32dd# 32aa#
.	.	.	.	32ee 32gg#
.	.	.	.	32dd# 32aa#
.	.	.	.	32eeJJJ 32gg#
*	*	*	*	*Xtremolo
=126	=126	=126	=126	=126
*	*	*	*	*tremolo
2.EE_ 2.BB_ 2.G#_	2.dd#_	2.B_ 2.e_ 2.g#_ 2.a#_	4.ddd#] 4.ggg#] 4.cccc#]	32dd#XLLL 32aa#X
.	.	.	.	32ee 32gg#X
.	.	.	.	32dd# 32aa#
.	.	.	.	32ee 32gg#
.	.	.	.	32dd# 32aa#
.	.	.	.	32ee 32gg#
.	.	.	.	32dd# 32aa#
.	.	.	.	32ee 32gg#
.	.	.	.	32dd# 32aa#
.	.	.	.	32ee 32gg#
.	.	.	.	32dd# 32aa#
.	.	.	.	32eeJJJ 32gg#
.	.	.	8ddd#XL 8ggg#X 8cccc#X	32dd#LLL 32aa#
.	.	.	.	32ee 32gg#
.	.	.	.	32dd# 32aa#
.	.	.	.	32ee 32gg#
.	.	.	8ddd# 8ggg# 8cccc#	32dd# 32aa#
.	.	.	.	32ee 32gg#
.	.	.	.	32dd# 32aa#
.	.	.	.	32ee 32gg#
.	.	.	[8ddd#J [8ggg# [8cccc#	32dd# 32aa#
.	.	.	.	32ee 32gg#
.	.	.	.	32dd# 32aa#
.	.	.	.	32ee 32gg#
4.EE_ 4.BB_ 4.G#_	4.dd#_	4.B_ 4.e_ 4.g#_ 4.a#_	8ddd#L] 8ggg#] 8cccc#]	32dd# 32aa#
.	.	.	.	32ee 32gg#
.	.	.	.	32dd# 32aa#
.	.	.	.	32ee 32gg#
.	.	.	8ddd# 8ggg# 8cccc#	32dd# 32aa#
.	.	.	.	32ee 32gg#
.	.	.	.	32dd# 32aa#
.	.	.	.	32ee 32gg#
.	.	.	[8ddd#J [8ggg# [8cccc#	32dd# 32aa#
.	.	.	.	32ee 32gg#
.	.	.	.	32dd# 32aa#
.	.	.	.	32eeJJJ 32gg#
*	*	*	*	*Xtremolo
=127	=127	=127	=127	=127
4.EE] 4.BB] 4.G#]	4.dd#]	4.B] 4.e] 4.g#] 4.a#]	8ddd#] 8ggg#] 8cccc#]	4rc
.	.	.	8raa	.
.	.	.	8raa	8rc
[8qBB-X/ [8qF	.	.	.	.
*	*	*	*	*tremolo
2.BB-_ 2.F_	4raa	2.d 2.a-X	4raa	32ddnLLL 32aa-X
.	.	.	.	32ee 32gg
.	.	.	.	32dd 32aa-
.	.	.	.	32ee 32gg
.	.	.	.	32dd 32aa-
.	.	.	.	32ee 32gg
.	.	.	.	32dd 32aa-
.	.	.	.	32ee 32gg
.	8raa	.	8raa	32dd 32aa-
.	.	.	.	32ee 32gg
.	.	.	.	32dd 32aa-
.	.	.	.	32eeJJJ 32gg
.	4raa	.	4raa	32ddLLL 32aa-
.	.	.	.	32ee 32gg
.	.	.	.	32dd 32aa-
.	.	.	.	32ee 32gg
.	.	.	.	32dd 32aa-
.	.	.	.	32ee 32gg
.	.	.	.	32dd 32aa-
.	.	.	.	32ee 32gg
.	8raa	.	8raa	32dd 32aa-
.	.	.	.	32ee 32gg
.	.	.	.	32dd 32aa-
.	.	.	.	32eeJJJ 32gg
=128	=128	=128	=128	=128
2.BB-_ 2.F_	4raa	2.d 2.a-X	4raa	32ddLLL 32aa-X
.	.	.	.	32ee 32gg
.	.	.	.	32dd 32aa-
.	.	.	.	32ee 32gg
.	.	.	.	32dd 32aa-
.	.	.	.	32ee 32gg
.	.	.	.	32dd 32aa-
.	.	.	.	32ee 32gg
.	8raa	.	8raa	32dd 32aa-
.	.	.	.	32ee 32gg
.	.	.	.	32dd 32aa-
.	.	.	.	32ee 32gg
.	4raa	.	4raa	32dd 32aa-
.	.	.	.	32ee 32gg
.	.	.	.	32dd 32aa-
.	.	.	.	32ee 32gg
.	.	.	.	32dd 32aa-
.	.	.	.	32ee 32gg
.	.	.	.	32dd 32aa-
.	.	.	.	32ee 32gg
.	8raa	.	8raa	32dd 32aa-
.	.	.	.	32ee 32gg
.	.	.	.	32dd 32aa-
.	.	.	.	32eeJJJ 32gg
4.BB-] 4.F]	4raa	4.d 4.f 4.an	4raa	32ddLLL 32aa-
.	.	.	.	32ee 32gg
.	.	.	.	32dd 32aa-
.	.	.	.	32ee 32gg
.	.	.	.	32dd 32aa-
.	.	.	.	32ee 32gg
.	.	.	.	32dd 32aa-
.	.	.	.	32ee 32gg
.	8raa	.	8raa	32dd 32aa-
.	.	.	.	32ee 32gg
.	.	.	.	32dd 32aa-
.	.	.	.	32eeJJJ 32gg
*	*	*	*	*Xtremolo
=129	=129	=129	=129	=129
[2.EE [2.BB [2.G#X	4raa	[2.B [2.e [2.g#X [2.a#X	4raa	4rc
.	8ee	.	8raa	8rc
.	[2.dd#X	.	4raa	4rc
.	.	.	8raa	8rc
*	*	*	*	*tremolo
4.EE_ 4.BB_ 4.G#_	.	4.B_ 4.e_ 4.g#_ 4.a#_	8ddd#XL 8ggg#X 8cccc#X	32dd#XLLL 32aa#X
.	.	.	.	32ee 32gg#X
.	.	.	.	32dd# 32aa#
.	.	.	.	32ee 32gg#
.	.	.	8ddd# 8ggg# 8cccc#	32dd# 32aa#
.	.	.	.	32ee 32gg#
.	.	.	.	32dd# 32aa#
.	.	.	.	32ee 32gg#
.	.	.	[8ddd#J [8ggg# [8cccc#	32dd# 32aa#
.	.	.	.	32ee 32gg#
.	.	.	.	32dd# 32aa#
.	.	.	.	32eeJJJ 32gg#
*	*	*	*	*Xtremolo
=130	=130	=130	=130	=130
*	*	*	*	*tremolo
2.EE_ 2.BB_ 2.G#_	2.dd#_	2.B_ 2.e_ 2.g#_ 2.a#_	4.ddd#] 4.ggg#] 4.cccc#]	32dd#XLLL 32aa#X
.	.	.	.	32ee 32gg#X
.	.	.	.	32dd# 32aa#
.	.	.	.	32ee 32gg#
.	.	.	.	32dd# 32aa#
.	.	.	.	32ee 32gg#
.	.	.	.	32dd# 32aa#
.	.	.	.	32ee 32gg#
.	.	.	.	32dd# 32aa#
.	.	.	.	32ee 32gg#
.	.	.	.	32dd# 32aa#
.	.	.	.	32eeJJJ 32gg#
.	.	.	8ddd#XL 8ggg#X 8cccc#X	32dd#LLL 32aa#
.	.	.	.	32ee 32gg#
.	.	.	.	32dd# 32aa#
.	.	.	.	32ee 32gg#
.	.	.	8ddd# 8ggg# 8cccc#	32dd# 32aa#
.	.	.	.	32ee 32gg#
.	.	.	.	32dd# 32aa#
.	.	.	.	32ee 32gg#
.	.	.	[8ddd#J [8ggg# [8cccc#	32dd# 32aa#
.	.	.	.	32ee 32gg#
.	.	.	.	32dd# 32aa#
.	.	.	.	32ee 32gg#
4.EE_ 4.BB_ 4.G#_	4.dd#]	4.B] 4.e] 4.g#] 4.a#]	8ddd#L] 8ggg#] 8cccc#]	32dd# 32aa#
.	.	.	.	32ee 32gg#
.	.	.	.	32dd# 32aa#
.	.	.	.	32ee 32gg#
.	.	.	8ddd# 8ggg# 8cccc#	32dd# 32aa#
.	.	.	.	32ee 32gg#
.	.	.	.	32dd# 32aa#
.	.	.	.	32ee 32gg#
.	.	.	8ddd#J 8ggg# 8cccc#	32dd# 32aa#
.	.	.	.	32ee 32gg#
.	.	.	.	32dd# 32aa#
.	.	.	.	32eeJJJ 32gg#
*	*	*	*	*Xtremolo
=131	=131	=131	=131	=131
2.EE_ 2.BB_ 2.G#_	4raa	[2.B [2.e [2.g#X [2.a#X	4raa	4rc
.	8ee	.	8raa	8rc
.	[2.dd#X	.	4raa	4rc
.	.	.	8raa	8rc
*	*	*	*	*tremolo
4.EE_ 4.BB_ 4.G#_	.	4.B_ 4.e_ 4.g#_ 4.a#_	8ddd#XL 8ggg#X 8cccc#X	32dd#XLLL 32aa#X
.	.	.	.	32ee 32gg#X
.	.	.	.	32dd# 32aa#
.	.	.	.	32ee 32gg#
.	.	.	8ddd# 8ggg# 8cccc#	32dd# 32aa#
.	.	.	.	32ee 32gg#
.	.	.	.	32dd# 32aa#
.	.	.	.	32ee 32gg#
.	.	.	[8ddd#J [8ggg# [8cccc#	32dd# 32aa#
.	.	.	.	32ee 32gg#
.	.	.	.	32dd# 32aa#
.	.	.	.	32eeJJJ 32gg#
*	*	*	*	*Xtremolo
=132	=132	=132	=132	=132
*	*	*	*	*tremolo
2.EE_ 2.BB_ 2.G#_	2.dd#_	2.B_ 2.e_ 2.g#_ 2.a#_	4.ddd#] 4.ggg#] 4.cccc#]	32dd#XLLL 32aa#X
.	.	.	.	32ee 32gg#X
.	.	.	.	32dd# 32aa#
.	.	.	.	32ee 32gg#
.	.	.	.	32dd# 32aa#
.	.	.	.	32ee 32gg#
.	.	.	.	32dd# 32aa#
.	.	.	.	32ee 32gg#
.	.	.	.	32dd# 32aa#
.	.	.	.	32ee 32gg#
.	.	.	.	32dd# 32aa#
.	.	.	.	32eeJJJ 32gg#
.	.	.	8ddd#XL 8ggg#X 8cccc#X	32dd#LLL 32aa#
.	.	.	.	32ee 32gg#
.	.	.	.	32dd# 32aa#
.	.	.	.	32ee 32gg#
.	.	.	8ddd# 8ggg# 8cccc#	32dd# 32aa#
.	.	.	.	32ee 32gg#
.	.	.	.	32dd# 32aa#
.	.	.	.	32ee 32gg#
.	.	.	[8ddd#J [8ggg# [8cccc#	32dd# 32aa#
.	.	.	.	32ee 32gg#
.	.	.	.	32dd# 32aa#
.	.	.	.	32ee 32gg#
4.EE] 4.BB] 4.G#]	4.dd#]	4.B] 4.e] 4.g#] 4.a#]	8ddd#L] 8ggg#] 8cccc#]	32dd# 32aa#
.	.	.	.	32ee 32gg#
.	.	.	.	32dd# 32aa#
.	.	.	.	32ee 32gg#
.	.	.	8ddd# 8ggg# 8cccc#	32dd# 32aa#
.	.	.	.	32ee 32gg#
.	.	.	.	32dd# 32aa#
.	.	.	.	32ee 32gg#
.	.	.	[8ddd#J [8ggg# [8cccc#	32dd# 32aa#
.	.	.	.	32ee 32gg#
.	.	.	.	32dd# 32aa#
.	.	.	.	32eeJJJ 32gg#
*	*	*	*	*Xtremolo
*	*v	*v	*	*
*	*	*v	*v
*	*clefF4	*
=133	=133	=133
8%9r	4.EEE 4.EE	4.ddd#] 4.ggg#] 4.cccc#]
.	4.BB	8ddd#XL 8ggg#X 8cccc#X
.	.	8ddd# 8ggg# 8cccc#
.	.	[8ddd#J [8ggg# [8cccc#
.	4.G#X	8ddd#L] 8ggg#] 8cccc#]
.	.	8ddd# 8ggg# 8cccc#
.	.	[8ddd#J [8ggg# [8cccc#
=134	=134	=134
8%9r	4.B	4.ddd#] 4.ggg#] 4.cccc#]
.	4.e	8ddd#XL 8ggg#X 8cccc#X
.	.	8ddd# 8ggg# 8cccc#
.	.	[8ddd#J [8ggg# [8cccc#
.	4.g#X	8ddd#L] 8ggg#] 8cccc#]
.	.	8ddd# 8ggg# 8cccc#
.	.	[8ddd#J [8ggg# [8cccc#
*	*clefG2	*
=135	=135	=135
8%9r	4.a#X	4.ddd#] 4.ggg#] 4.cccc#]
.	4.dd#X	8ddd#XL 8ggg#X 8cccc#X
.	.	8ddd# 8ggg# 8cccc#
.	.	[8ddd#J [8ggg# [8cccc#
.	4.gg#X	8ddd#L] 8ggg#] 8cccc#]
.	.	8ddd# 8ggg# 8cccc#
.	.	[8ddd#J [8ggg# [8cccc#
=136	=136	=136
8%9r	4.aa#X	8ddd#] 8ggg#] 8cccc#]
.	.	8r
.	.	8r
.	4r	4.ddd#X
.	8r	.
.	4r	4.ggg#X
.	8r	.
*	*clefF4	*
=137	=137	=137
8%9r	4.EEE 4.EE	4.cccc#X
.	4r	4r
.	8r	8r
.	4r	4r
.	8r	8r
==	==	==
*-	*-	*-
!!!system-decoration: {(*)}
!!!ENC: Bryan Jacob Bell
!!!END: November 2021 to April 2022
!!!PED: Gnter Philipp
!!!PTL: Ausgewhlte Klavierwerke (Edition Peters)
